tests/color-grading-smoke/reference_luts/linear_to_logc_33.cube
TITLE "linear_to_logc"
# linear_to_logc
LUT_3D_SIZE 5
DOMAIN_MIN 0.0000000 0.0000000 0.0000000
DOMAIN_MAX 55.0795767 55.0795767 55.0795767
0.0928090 0.0928090 0.0928090
0.8512318 0.0928090 0.0928090
0.9256067 0.0928090 0.0928090
0.9691225 0.0928090 0.0928090
1.0000000 0.0928090 0.0928090
0.0928090 0.8512318 0.0928090
0.8512318 0.8512318 0.0928090
0.9256067 0.8512318 0.0928090
0.9691225 0.8512318 0.0928090
1.0000000 0.8512318 0.0928090
0.0928090 0.9256067 0.0928090
0.8512318 0.9256067 0.0928090
0.9256067 0.9256067 0.0928090
0.9691225 0.9256067 0.0928090
1.0000000 0.9256067 0.0928090
0.0928090 0.9691225 0.0928090
0.8512318 0.9691225 0.0928090
0.9256067 0.9691225 0.0928090
0.9691225 0.9691225 0.0928090
1.0000000 0.9691225 0.0928090
0.0928090 1.0000000 0.0928090
0.8512318 1.0000000 0.0928090
0.9256067 1.0000000 0.0928090
0.9691225 1.0000000 0.0928090
1.0000000 1.0000000 0.0928090
0.0928090 0.0928090 0.8512318
0.8512318 0.0928090 0.8512318
0.9256067 0.0928090 0.8512318
0.9691225 0.0928090 0.8512318
1.0000000 0.0928090 0.8512318
0.0928090 0.8512318 0.8512318
0.8512318 0.8512318 0.8512318
0.9256067 0.8512318 0.8512318
0.9691225 0.8512318 0.8512318
1.0000000 0.8512318 0.8512318
0.0928090 0.9256067 0.8512318
0.8512318 0.9256067 0.8512318
0.9256067 0.9256067 0.8512318
0.9691225 0.9256067 0.8512318
1.0000000 0.9256067 0.8512318
0.0928090 0.9691225 0.8512318
0.8512318 0.9691225 0.8512318
0.9256067 0.9691225 0.8512318
0.9691225 0.9691225 0.8512318
1.0000000 0.9691225 0.8512318
0.0928090 1.0000000 0.8512318
0.8512318 1.0000000 0.8512318
0.9256067 1.0000000 0.8512318
0.9691225 1.0000000 0.8512318
1.0000000 1.0000000 0.8512318
0.0928090 0.0928090 0.9256067
0.8512318 0.0928090 0.9256067
0.9256067 0.0928090 0.9256067
0.9691225 0.0928090 0.9256067
1.0000000 0.0928090 0.9256067
0.0928090 0.8512318 0.9256067
0.8512318 0.8512318 0.9256067
0.9256067 0.8512318 0.9256067
0.9691225 0.8512318 0.9256067
1.0000000 0.8512318 0.9256067
0.0928090 0.9256067 0.9256067
0.8512318 0.9256067 0.9256067
0.9256067 0.9256067 0.9256067
0.9691225 0.9256067 0.9256067
1.0000000 0.9256067 0.9256067
0.0928090 0.9691225 0.9256067
0.8512318 0.9691225 0.9256067
0.9256067 0.9691225 0.9256067
0.9691225 0.9691225 0.9256067
1.0000000 0.9691225 0.9256067
0.0928090 1.0000000 0.9256067
0.8512318 1.0000000 0.9256067
0.9256067 1.0000000 0.9256067
0.9691225 1.0000000 0.9256067
1.0000000 1.0000000 0.9256067
0.0928090 0.0928090 0.9691225
0.8512318 0.0928090 0.9691225
0.9256067 0.0928090 0.9691225
0.9691225 0.0928090 0.9691225
1.0000000 0.0928090 0.9691225
0.0928090 0.8512318 0.9691225
0.8512318 0.8512318 0.9691225
0.9256067 0.8512318 0.9691225
0.9691225 0.8512318 0.9691225
1.0000000 0.8512318 0.9691225
0.0928090 0.9256067 0.9691225
0.8512318 0.9256067 0.9691225
0.9256067 0.9256067 0.9691225
0.9691225 0.9256067 0.9691225
1.0000000 0.9256067 0.9691225
0.0928090 0.9691225 0.9691225
0.8512318 0.9691225 0.9691225
0.9256067 0.9691225 0.9691225
0.9691225 0.9691225 0.9691225
1.0000000 0.9691225 0.9691225
0.0928090 1.0000000 0.9691225
0.8512318 1.0000000 0.9691225
0.9256067 1.0000000 0.9691225
0.9691225 1.0000000 0.9691225
1.0000000 1.0000000 0.9691225
0.0928090 0.0928090 1.0000000
0.8512318 0.0928090 1.0000000
0.9256067 0.0928090 1.0000000
0.9691225 0.0928090 1.0000000
1.0000000 0.0928090 1.0000000
0.0928090 0.8512318 1.0000000
0.8512318 0.8512318 1.0000000
0.9256067 0.8512318 1.0000000
0.9691225 0.8512318 1.0000000
1.0000000 0.8512318 1.0000000
0.0928090 0.9256067 1.0000000
0.8512318 0.9256067 1.0000000
0.9256067 0.9256067 1.0000000
0.9691225 0.9256067 1.0000000
1.0000000 0.9256067 1.0000000
0.0928090 0.9691225 1.0000000
0.8512318 0.9691225 1.0000000
0.9256067 0.9691225 1.0000000
0.9691225 0.9691225 1.0000000
1.0000000 0.9691225 1.0000000
0.0928090 1.0000000 1.0000000
0.8512318 1.0000000 1.0000000
0.9256067 1.0000000 1.0000000
0.9691225 1.0000000 1.0000000
1.0000000 1.0000000 1.0000000
