tests/color-grading-smoke/reference_luts/linear_to_logc_33.cube
TITLE "linear_to_logc"
# linear_to_logc
LUT_3D_SIZE 33
DOMAIN_MIN 0.0000000 0.0000000 0.0000000
DOMAIN_MAX 55.0795767 55.0795767 55.0795767
0.0928090 0.0928090 0.0928090
0.6285089 0.0928090 0.0928090
0.7026283 0.0928090 0.0928090
0.7460587 0.0928090 0.0928090
0.7768935 0.0928090 0.0928090
0.8008193 0.0928090 0.0928090
0.8203726 0.0928090 0.0928090
0.8369072 0.0928090 0.0928090
0.8512318 0.0928090 0.0928090
0.8638680 0.0928090 0.0928090
0.8751723 0.0928090 0.0928090
0.8853988 0.0928090 0.0928090
0.8947353 0.0928090 0.0928090
0.9033244 0.0928090 0.0928090
0.9112769 0.0928090 0.0928090
0.9186808 0.0928090 0.0928090
0.9256067 0.0928090 0.0928090
0.9321128 0.0928090 0.0928090
0.9382470 0.0928090 0.0928090
0.9440496 0.0928090 0.0928090
0.9495546 0.0928090 0.0928090
0.9547910 0.0928090 0.0928090
0.9597838 0.0928090 0.0928090
0.9645547 0.0928090 0.0928090
0.9691225 0.0928090 0.0928090
0.9735039 0.0928090 0.0928090
0.9777135 0.0928090 0.0928090
0.9817642 0.0928090 0.0928090
0.9856676 0.0928090 0.0928090
0.9894340 0.0928090 0.0928090
0.9930728 0.0928090 0.0928090
0.9965923 0.0928090 0.0928090
1.0000000 0.0928090 0.0928090
0.0928090 0.6285089 0.0928090
0.6285089 0.6285089 0.0928090
0.7026283 0.6285089 0.0928090
0.7460587 0.6285089 0.0928090
0.7768935 0.6285089 0.0928090
0.8008193 0.6285089 0.0928090
0.8203726 0.6285089 0.0928090
0.8369072 0.6285089 0.0928090
0.8512318 0.6285089 0.0928090
0.8638680 0.6285089 0.0928090
0.8751723 0.6285089 0.0928090
0.8853988 0.6285089 0.0928090
0.8947353 0.6285089 0.0928090
0.9033244 0.6285089 0.0928090
0.9112769 0.6285089 0.0928090
0.9186808 0.6285089 0.0928090
0.9256067 0.6285089 0.0928090
0.9321128 0.6285089 0.0928090
0.9382470 0.6285089 0.0928090
0.9440496 0.6285089 0.0928090
0.9495546 0.6285089 0.0928090
0.9547910 0.6285089 0.0928090
0.9597838 0.6285089 0.0928090
0.9645547 0.6285089 0.0928090
0.9691225 0.6285089 0.0928090
0.9735039 0.6285089 0.0928090
0.9777135 0.6285089 0.0928090
0.9817642 0.6285089 0.0928090
0.9856676 0.6285089 0.0928090
0.9894340 0.6285089 0.0928090
0.9930728 0.6285089 0.0928090
0.9965923 0.6285089 0.0928090
1.0000000 0.6285089 0.0928090
0.0928090 0.7026283 0.0928090
0.6285089 0.7026283 0.0928090
0.7026283 0.7026283 0.0928090
0.7460587 0.7026283 0.0928090
0.7768935 0.7026283 0.0928090
0.8008193 0.7026283 0.0928090
0.8203726 0.7026283 0.0928090
0.8369072 0.7026283 0.0928090
0.8512318 0.7026283 0.0928090
0.8638680 0.7026283 0.0928090
0.8751723 0.7026283 0.0928090
0.8853988 0.7026283 0.0928090
0.8947353 0.7026283 0.0928090
0.9033244 0.7026283 0.0928090
0.9112769 0.7026283 0.0928090
0.9186808 0.7026283 0.0928090
0.9256067 0.7026283 0.0928090
0.9321128 0.7026283 0.0928090
0.9382470 0.7026283 0.0928090
0.9440496 0.7026283 0.0928090
0.9495546 0.7026283 0.0928090
0.9547910 0.7026283 0.0928090
0.9597838 0.7026283 0.0928090
0.9645547 0.7026283 0.0928090
0.9691225 0.7026283 0.0928090
0.9735039 0.7026283 0.0928090
0.9777135 0.7026283 0.0928090
0.9817642 0.7026283 0.0928090
0.9856676 0.7026283 0.0928090
0.9894340 0.7026283 0.0928090
0.9930728 0.7026283 0.0928090
0.9965923 0.7026283 0.0928090
1.0000000 0.7026283 0.0928090
0.0928090 0.7460587 0.0928090
0.6285089 0.7460587 0.0928090
0.7026283 0.7460587 0.0928090
0.7460587 0.7460587 0.0928090
0.7768935 0.7460587 0.0928090
0.8008193 0.7460587 0.0928090
0.8203726 0.7460587 0.0928090
0.8369072 0.7460587 0.0928090
0.8512318 0.7460587 0.0928090
0.8638680 0.7460587 0.0928090
0.8751723 0.7460587 0.0928090
0.8853988 0.7460587 0.0928090
0.8947353 0.7460587 0.0928090
0.9033244 0.7460587 0.0928090
0.9112769 0.7460587 0.0928090
0.9186808 0.7460587 0.0928090
0.9256067 0.7460587 0.0928090
0.9321128 0.7460587 0.0928090
0.9382470 0.7460587 0.0928090
0.9440496 0.7460587 0.0928090
0.9495546 0.7460587 0.0928090
0.9547910 0.7460587 0.0928090
0.9597838 0.7460587 0.0928090
0.9645547 0.7460587 0.0928090
0.9691225 0.7460587 0.0928090
0.9735039 0.7460587 0.0928090
0.9777135 0.7460587 0.0928090
0.9817642 0.7460587 0.0928090
0.9856676 0.7460587 0.0928090
0.9894340 0.7460587 0.0928090
0.9930728 0.7460587 0.0928090
0.9965923 0.7460587 0.0928090
1.0000000 0.7460587 0.0928090
0.0928090 0.7768935 0.0928090
0.6285089 0.7768935 0.0928090
0.7026283 0.7768935 0.0928090
0.7460587 0.7768935 0.0928090
0.7768935 0.7768935 0.0928090
0.8008193 0.7768935 0.0928090
0.8203726 0.7768935 0.0928090
0.8369072 0.7768935 0.0928090
0.8512318 0.7768935 0.0928090
0.8638680 0.7768935 0.0928090
0.8751723 0.7768935 0.0928090
0.8853988 0.7768935 0.0928090
0.8947353 0.7768935 0.0928090
0.9033244 0.7768935 0.0928090
0.9112769 0.7768935 0.0928090
0.9186808 0.7768935 0.0928090
0.9256067 0.7768935 0.0928090
0.9321128 0.7768935 0.0928090
0.9382470 0.7768935 0.0928090
0.9440496 0.7768935 0.0928090
0.9495546 0.7768935 0.0928090
0.9547910 0.7768935 0.0928090
0.9597838 0.7768935 0.0928090
0.9645547 0.7768935 0.0928090
0.9691225 0.7768935 0.0928090
0.9735039 0.7768935 0.0928090
0.9777135 0.7768935 0.0928090
0.9817642 0.7768935 0.0928090
0.9856676 0.7768935 0.0928090
0.9894340 0.7768935 0.0928090
0.9930728 0.7768935 0.0928090
0.9965923 0.7768935 0.0928090
1.0000000 0.7768935 0.0928090
0.0928090 0.8008193 0.0928090
0.6285089 0.8008193 0.0928090
0.7026283 0.8008193 0.0928090
0.7460587 0.8008193 0.0928090
0.7768935 0.8008193 0.0928090
0.8008193 0.8008193 0.0928090
0.8203726 0.8008193 0.0928090
0.8369072 0.8008193 0.0928090
0.8512318 0.8008193 0.0928090
0.8638680 0.8008193 0.0928090
0.8751723 0.8008193 0.0928090
0.8853988 0.8008193 0.0928090
0.8947353 0.8008193 0.0928090
0.9033244 0.8008193 0.0928090
0.9112769 0.8008193 0.0928090
0.9186808 0.8008193 0.0928090
0.9256067 0.8008193 0.0928090
0.9321128 0.8008193 0.0928090
0.9382470 0.8008193 0.0928090
0.9440496 0.8008193 0.0928090
0.9495546 0.8008193 0.0928090
0.9547910 0.8008193 0.0928090
0.9597838 0.8008193 0.0928090
0.9645547 0.8008193 0.0928090
0.9691225 0.8008193 0.0928090
0.9735039 0.8008193 0.0928090
0.9777135 0.8008193 0.0928090
0.9817642 0.8008193 0.0928090
0.9856676 0.8008193 0.0928090
0.9894340 0.8008193 0.0928090
0.9930728 0.8008193 0.0928090
0.9965923 0.8008193 0.0928090
1.0000000 0.8008193 0.0928090
0.0928090 0.8203726 0.0928090
0.6285089 0.8203726 0.0928090
0.7026283 0.8203726 0.0928090
0.7460587 0.8203726 0.0928090
0.7768935 0.8203726 0.0928090
0.8008193 0.8203726 0.0928090
0.8203726 0.8203726 0.0928090
0.8369072 0.8203726 0.0928090
0.8512318 0.8203726 0.0928090
0.8638680 0.8203726 0.0928090
0.8751723 0.8203726 0.0928090
0.8853988 0.8203726 0.0928090
0.8947353 0.8203726 0.0928090
0.9033244 0.8203726 0.0928090
0.9112769 0.8203726 0.0928090
0.9186808 0.8203726 0.0928090
0.9256067 0.8203726 0.0928090
0.9321128 0.8203726 0.0928090
0.9382470 0.8203726 0.0928090
0.9440496 0.8203726 0.0928090
0.9495546 0.8203726 0.0928090
0.9547910 0.8203726 0.0928090
0.9597838 0.8203726 0.0928090
0.9645547 0.8203726 0.0928090
0.9691225 0.8203726 0.0928090
0.9735039 0.8203726 0.0928090
0.9777135 0.8203726 0.0928090
0.9817642 0.8203726 0.0928090
0.9856676 0.8203726 0.0928090
0.9894340 0.8203726 0.0928090
0.9930728 0.8203726 0.0928090
0.9965923 0.8203726 0.0928090
1.0000000 0.8203726 0.0928090
0.0928090 0.8369072 0.0928090
0.6285089 0.8369072 0.0928090
0.7026283 0.8369072 0.0928090
0.7460587 0.8369072 0.0928090
0.7768935 0.8369072 0.0928090
0.8008193 0.8369072 0.0928090
0.8203726 0.8369072 0.0928090
0.8369072 0.8369072 0.0928090
0.8512318 0.8369072 0.0928090
0.8638680 0.8369072 0.0928090
0.8751723 0.8369072 0.0928090
0.8853988 0.8369072 0.0928090
0.8947353 0.8369072 0.0928090
0.9033244 0.8369072 0.0928090
0.9112769 0.8369072 0.0928090
0.9186808 0.8369072 0.0928090
0.9256067 0.8369072 0.0928090
0.9321128 0.8369072 0.0928090
0.9382470 0.8369072 0.0928090
0.9440496 0.8369072 0.0928090
0.9495546 0.8369072 0.0928090
0.9547910 0.8369072 0.0928090
0.9597838 0.8369072 0.0928090
0.9645547 0.8369072 0.0928090
0.9691225 0.8369072 0.0928090
0.9735039 0.8369072 0.0928090
0.9777135 0.8369072 0.0928090
0.9817642 0.8369072 0.0928090
0.9856676 0.8369072 0.0928090
0.9894340 0.8369072 0.0928090
0.9930728 0.8369072 0.0928090
0.9965923 0.8369072 0.0928090
1.0000000 0.8369072 0.0928090
0.0928090 0.8512318 0.0928090
0.6285089 0.8512318 0.0928090
0.7026283 0.8512318 0.0928090
0.7460587 0.8512318 0.0928090
0.7768935 0.8512318 0.0928090
0.8008193 0.8512318 0.0928090
0.8203726 0.8512318 0.0928090
0.8369072 0.8512318 0.0928090
0.8512318 0.8512318 0.0928090
0.8638680 0.8512318 0.0928090
0.8751723 0.8512318 0.0928090
0.8853988 0.8512318 0.0928090
0.8947353 0.8512318 0.0928090
0.9033244 0.8512318 0.0928090
0.9112769 0.8512318 0.0928090
0.9186808 0.8512318 0.0928090
0.9256067 0.8512318 0.0928090
0.9321128 0.8512318 0.0928090
0.9382470 0.8512318 0.0928090
0.9440496 0.8512318 0.0928090
0.9495546 0.8512318 0.0928090
0.9547910 0.8512318 0.0928090
0.9597838 0.8512318 0.0928090
0.9645547 0.8512318 0.0928090
0.9691225 0.8512318 0.0928090
0.9735039 0.8512318 0.0928090
0.9777135 0.8512318 0.0928090
0.9817642 0.8512318 0.0928090
0.9856676 0.8512318 0.0928090
0.9894340 0.8512318 0.0928090
0.9930728 0.8512318 0.0928090
0.9965923 0.8512318 0.0928090
1.0000000 0.8512318 0.0928090
0.0928090 0.8638680 0.0928090
0.6285089 0.8638680 0.0928090
0.7026283 0.8638680 0.0928090
0.7460587 0.8638680 0.0928090
0.7768935 0.8638680 0.0928090
0.8008193 0.8638680 0.0928090
0.8203726 0.8638680 0.0928090
0.8369072 0.8638680 0.0928090
0.8512318 0.8638680 0.0928090
0.8638680 0.8638680 0.0928090
0.8751723 0.8638680 0.0928090
0.8853988 0.8638680 0.0928090
0.8947353 0.8638680 0.0928090
0.9033244 0.8638680 0.0928090
0.9112769 0.8638680 0.0928090
0.9186808 0.8638680 0.0928090
0.9256067 0.8638680 0.0928090
0.9321128 0.8638680 0.0928090
0.9382470 0.8638680 0.0928090
0.9440496 0.8638680 0.0928090
0.9495546 0.8638680 0.0928090
0.9547910 0.8638680 0.0928090
0.9597838 0.8638680 0.0928090
0.9645547 0.8638680 0.0928090
0.9691225 0.8638680 0.0928090
0.9735039 0.8638680 0.0928090
0.9777135 0.8638680 0.0928090
0.9817642 0.8638680 0.0928090
0.9856676 0.8638680 0.0928090
0.9894340 0.8638680 0.0928090
0.9930728 0.8638680 0.0928090
0.9965923 0.8638680 0.0928090
1.0000000 0.8638680 0.0928090
0.0928090 0.8751723 0.0928090
0.6285089 0.8751723 0.0928090
0.7026283 0.8751723 0.0928090
0.7460587 0.8751723 0.0928090
0.7768935 0.8751723 0.0928090
0.8008193 0.8751723 0.0928090
0.8203726 0.8751723 0.0928090
0.8369072 0.8751723 0.0928090
0.8512318 0.8751723 0.0928090
0.8638680 0.8751723 0.0928090
0.8751723 0.8751723 0.0928090
0.8853988 0.8751723 0.0928090
0.8947353 0.8751723 0.0928090
0.9033244 0.8751723 0.0928090
0.9112769 0.8751723 0.0928090
0.9186808 0.8751723 0.0928090
0.9256067 0.8751723 0.0928090
0.9321128 0.8751723 0.0928090
0.9382470 0.8751723 0.0928090
0.9440496 0.8751723 0.0928090
0.9495546 0.8751723 0.0928090
0.9547910 0.8751723 0.0928090
0.9597838 0.8751723 0.0928090
0.9645547 0.8751723 0.0928090
0.9691225 0.8751723 0.0928090
0.9735039 0.8751723 0.0928090
0.9777135 0.8751723 0.0928090
0.9817642 0.8751723 0.0928090
0.9856676 0.8751723 0.0928090
0.9894340 0.8751723 0.0928090
0.9930728 0.8751723 0.0928090
0.9965923 0.8751723 0.0928090
1.0000000 0.8751723 0.0928090
0.0928090 0.8853988 0.0928090
0.6285089 0.8853988 0.0928090
0.7026283 0.8853988 0.0928090
0.7460587 0.8853988 0.0928090
0.7768935 0.8853988 0.0928090
0.8008193 0.8853988 0.0928090
0.8203726 0.8853988 0.0928090
0.8369072 0.8853988 0.0928090
0.8512318 0.8853988 0.0928090
0.8638680 0.8853988 0.0928090
0.8751723 0.8853988 0.0928090
0.8853988 0.8853988 0.0928090
0.8947353 0.8853988 0.0928090
0.9033244 0.8853988 0.0928090
0.9112769 0.8853988 0.0928090
0.9186808 0.8853988 0.0928090
0.9256067 0.8853988 0.0928090
0.9321128 0.8853988 0.0928090
0.9382470 0.8853988 0.0928090
0.9440496 0.8853988 0.0928090
0.9495546 0.8853988 0.0928090
0.9547910 0.8853988 0.0928090
0.9597838 0.8853988 0.0928090
0.9645547 0.8853988 0.0928090
0.9691225 0.8853988 0.0928090
0.9735039 0.8853988 0.0928090
0.9777135 0.8853988 0.0928090
0.9817642 0.8853988 0.0928090
0.9856676 0.8853988 0.0928090
0.9894340 0.8853988 0.0928090
0.9930728 0.8853988 0.0928090
0.9965923 0.8853988 0.0928090
1.0000000 0.8853988 0.0928090
0.0928090 0.8947353 0.0928090
0.6285089 0.8947353 0.0928090
0.7026283 0.8947353 0.0928090
0.7460587 0.8947353 0.0928090
0.7768935 0.8947353 0.0928090
0.8008193 0.8947353 0.0928090
0.8203726 0.8947353 0.0928090
0.8369072 0.8947353 0.0928090
0.8512318 0.8947353 0.0928090
0.8638680 0.8947353 0.0928090
0.8751723 0.8947353 0.0928090
0.8853988 0.8947353 0.0928090
0.8947353 0.8947353 0.0928090
0.9033244 0.8947353 0.0928090
0.9112769 0.8947353 0.0928090
0.9186808 0.8947353 0.0928090
0.9256067 0.8947353 0.0928090
0.9321128 0.8947353 0.0928090
0.9382470 0.8947353 0.0928090
0.9440496 0.8947353 0.0928090
0.9495546 0.8947353 0.0928090
0.9547910 0.8947353 0.0928090
0.9597838 0.8947353 0.0928090
0.9645547 0.8947353 0.0928090
0.9691225 0.8947353 0.0928090
0.9735039 0.8947353 0.0928090
0.9777135 0.8947353 0.0928090
0.9817642 0.8947353 0.0928090
0.9856676 0.8947353 0.0928090
0.9894340 0.8947353 0.0928090
0.9930728 0.8947353 0.0928090
0.9965923 0.8947353 0.0928090
1.0000000 0.8947353 0.0928090
0.0928090 0.9033244 0.0928090
0.6285089 0.9033244 0.0928090
0.7026283 0.9033244 0.0928090
0.7460587 0.9033244 0.0928090
0.7768935 0.9033244 0.0928090
0.8008193 0.9033244 0.0928090
0.8203726 0.9033244 0.0928090
0.8369072 0.9033244 0.0928090
0.8512318 0.9033244 0.0928090
0.8638680 0.9033244 0.0928090
0.8751723 0.9033244 0.0928090
0.8853988 0.9033244 0.0928090
0.8947353 0.9033244 0.0928090
0.9033244 0.9033244 0.0928090
0.9112769 0.9033244 0.0928090
0.9186808 0.9033244 0.0928090
0.9256067 0.9033244 0.0928090
0.9321128 0.9033244 0.0928090
0.9382470 0.9033244 0.0928090
0.9440496 0.9033244 0.0928090
0.9495546 0.9033244 0.0928090
0.9547910 0.9033244 0.0928090
0.9597838 0.9033244 0.0928090
0.9645547 0.9033244 0.0928090
0.9691225 0.9033244 0.0928090
0.9735039 0.9033244 0.0928090
0.9777135 0.9033244 0.0928090
0.9817642 0.9033244 0.0928090
0.9856676 0.9033244 0.0928090
0.9894340 0.9033244 0.0928090
0.9930728 0.9033244 0.0928090
0.9965923 0.9033244 0.0928090
1.0000000 0.9033244 0.0928090
0.0928090 0.9112769 0.0928090
0.6285089 0.9112769 0.0928090
0.7026283 0.9112769 0.0928090
0.7460587 0.9112769 0.0928090
0.7768935 0.9112769 0.0928090
0.8008193 0.9112769 0.0928090
0.8203726 0.9112769 0.0928090
0.8369072 0.9112769 0.0928090
0.8512318 0.9112769 0.0928090
0.8638680 0.9112769 0.0928090
0.8751723 0.9112769 0.0928090
0.8853988 0.9112769 0.0928090
0.8947353 0.9112769 0.0928090
0.9033244 0.9112769 0.0928090
0.9112769 0.9112769 0.0928090
0.9186808 0.9112769 0.0928090
0.9256067 0.9112769 0.0928090
0.9321128 0.9112769 0.0928090
0.9382470 0.9112769 0.0928090
0.9440496 0.9112769 0.0928090
0.9495546 0.9112769 0.0928090
0.9547910 0.9112769 0.0928090
0.9597838 0.9112769 0.0928090
0.9645547 0.9112769 0.0928090
0.9691225 0.9112769 0.0928090
0.9735039 0.9112769 0.0928090
0.9777135 0.9112769 0.0928090
0.9817642 0.9112769 0.0928090
0.9856676 0.9112769 0.0928090
0.9894340 0.9112769 0.0928090
0.9930728 0.9112769 0.0928090
0.9965923 0.9112769 0.0928090
1.0000000 0.9112769 0.0928090
0.0928090 0.9186808 0.0928090
0.6285089 0.9186808 0.0928090
0.7026283 0.9186808 0.0928090
0.7460587 0.9186808 0.0928090
0.7768935 0.9186808 0.0928090
0.8008193 0.9186808 0.0928090
0.8203726 0.9186808 0.0928090
0.8369072 0.9186808 0.0928090
0.8512318 0.9186808 0.0928090
0.8638680 0.9186808 0.0928090
0.8751723 0.9186808 0.0928090
0.8853988 0.9186808 0.0928090
0.8947353 0.9186808 0.0928090
0.9033244 0.9186808 0.0928090
0.9112769 0.9186808 0.0928090
0.9186808 0.9186808 0.0928090
0.9256067 0.9186808 0.0928090
0.9321128 0.9186808 0.0928090
0.9382470 0.9186808 0.0928090
0.9440496 0.9186808 0.0928090
0.9495546 0.9186808 0.0928090
0.9547910 0.9186808 0.0928090
0.9597838 0.9186808 0.0928090
0.9645547 0.9186808 0.0928090
0.9691225 0.9186808 0.0928090
0.9735039 0.9186808 0.0928090
0.9777135 0.9186808 0.0928090
0.9817642 0.9186808 0.0928090
0.9856676 0.9186808 0.0928090
0.9894340 0.9186808 0.0928090
0.9930728 0.9186808 0.0928090
0.9965923 0.9186808 0.0928090
1.0000000 0.9186808 0.0928090
0.0928090 0.9256067 0.0928090
0.6285089 0.9256067 0.0928090
0.7026283 0.9256067 0.0928090
0.7460587 0.9256067 0.0928090
0.7768935 0.9256067 0.0928090
0.8008193 0.9256067 0.0928090
0.8203726 0.9256067 0.0928090
0.8369072 0.9256067 0.0928090
0.8512318 0.9256067 0.0928090
0.8638680 0.9256067 0.0928090
0.8751723 0.9256067 0.0928090
0.8853988 0.9256067 0.0928090
0.8947353 0.9256067 0.0928090
0.9033244 0.9256067 0.0928090
0.9112769 0.9256067 0.0928090
0.9186808 0.9256067 0.0928090
0.9256067 0.9256067 0.0928090
0.9321128 0.9256067 0.0928090
0.9382470 0.9256067 0.0928090
0.9440496 0.9256067 0.0928090
0.9495546 0.9256067 0.0928090
0.9547910 0.9256067 0.0928090
0.9597838 0.9256067 0.0928090
0.9645547 0.9256067 0.0928090
0.9691225 0.9256067 0.0928090
0.9735039 0.9256067 0.0928090
0.9777135 0.9256067 0.0928090
0.9817642 0.9256067 0.0928090
0.9856676 0.9256067 0.0928090
0.9894340 0.9256067 0.0928090
0.9930728 0.9256067 0.0928090
0.9965923 0.9256067 0.0928090
1.0000000 0.9256067 0.0928090
0.0928090 0.9321128 0.0928090
0.6285089 0.9321128 0.0928090
0.7026283 0.9321128 0.0928090
0.7460587 0.9321128 0.0928090
0.7768935 0.9321128 0.0928090
0.8008193 0.9321128 0.0928090
0.8203726 0.9321128 0.0928090
0.8369072 0.9321128 0.0928090
0.8512318 0.9321128 0.0928090
0.8638680 0.9321128 0.0928090
0.8751723 0.9321128 0.0928090
0.8853988 0.9321128 0.0928090
0.8947353 0.9321128 0.0928090
0.9033244 0.9321128 0.0928090
0.9112769 0.9321128 0.0928090
0.9186808 0.9321128 0.0928090
0.9256067 0.9321128 0.0928090
0.9321128 0.9321128 0.0928090
0.9382470 0.9321128 0.0928090
0.9440496 0.9321128 0.0928090
0.9495546 0.9321128 0.0928090
0.9547910 0.9321128 0.0928090
0.9597838 0.9321128 0.0928090
0.9645547 0.9321128 0.0928090
0.9691225 0.9321128 0.0928090
0.9735039 0.9321128 0.0928090
0.9777135 0.9321128 0.0928090
0.9817642 0.9321128 0.0928090
0.9856676 0.9321128 0.0928090
0.9894340 0.9321128 0.0928090
0.9930728 0.9321128 0.0928090
0.9965923 0.9321128 0.0928090
1.0000000 0.9321128 0.0928090
0.0928090 0.9382470 0.0928090
0.6285089 0.9382470 0.0928090
0.7026283 0.9382470 0.0928090
0.7460587 0.9382470 0.0928090
0.7768935 0.9382470 0.0928090
0.8008193 0.9382470 0.0928090
0.8203726 0.9382470 0.0928090
0.8369072 0.9382470 0.0928090
0.8512318 0.9382470 0.0928090
0.8638680 0.9382470 0.0928090
0.8751723 0.9382470 0.0928090
0.8853988 0.9382470 0.0928090
0.8947353 0.9382470 0.0928090
0.9033244 0.9382470 0.0928090
0.9112769 0.9382470 0.0928090
0.9186808 0.9382470 0.0928090
0.9256067 0.9382470 0.0928090
0.9321128 0.9382470 0.0928090
0.9382470 0.9382470 0.0928090
0.9440496 0.9382470 0.0928090
0.9495546 0.9382470 0.0928090
0.9547910 0.9382470 0.0928090
0.9597838 0.9382470 0.0928090
0.9645547 0.9382470 0.0928090
0.9691225 0.9382470 0.0928090
0.9735039 0.9382470 0.0928090
0.9777135 0.9382470 0.0928090
0.9817642 0.9382470 0.0928090
0.9856676 0.9382470 0.0928090
0.9894340 0.9382470 0.0928090
0.9930728 0.9382470 0.0928090
0.9965923 0.9382470 0.0928090
1.0000000 0.9382470 0.0928090
0.0928090 0.9440496 0.0928090
0.6285089 0.9440496 0.0928090
0.7026283 0.9440496 0.0928090
0.7460587 0.9440496 0.0928090
0.7768935 0.9440496 0.0928090
0.8008193 0.9440496 0.0928090
0.8203726 0.9440496 0.0928090
0.8369072 0.9440496 0.0928090
0.8512318 0.9440496 0.0928090
0.8638680 0.9440496 0.0928090
0.8751723 0.9440496 0.0928090
0.8853988 0.9440496 0.0928090
0.8947353 0.9440496 0.0928090
0.9033244 0.9440496 0.0928090
0.9112769 0.9440496 0.0928090
0.9186808 0.9440496 0.0928090
0.9256067 0.9440496 0.0928090
0.9321128 0.9440496 0.0928090
0.9382470 0.9440496 0.0928090
0.9440496 0.9440496 0.0928090
0.9495546 0.9440496 0.0928090
0.9547910 0.9440496 0.0928090
0.9597838 0.9440496 0.0928090
0.9645547 0.9440496 0.0928090
0.9691225 0.9440496 0.0928090
0.9735039 0.9440496 0.0928090
0.9777135 0.9440496 0.0928090
0.9817642 0.9440496 0.0928090
0.9856676 0.9440496 0.0928090
0.9894340 0.9440496 0.0928090
0.9930728 0.9440496 0.0928090
0.9965923 0.9440496 0.0928090
1.0000000 0.9440496 0.0928090
0.0928090 0.9495546 0.0928090
0.6285089 0.9495546 0.0928090
0.7026283 0.9495546 0.0928090
0.7460587 0.9495546 0.0928090
0.7768935 0.9495546 0.0928090
0.8008193 0.9495546 0.0928090
0.8203726 0.9495546 0.0928090
0.8369072 0.9495546 0.0928090
0.8512318 0.9495546 0.0928090
0.8638680 0.9495546 0.0928090
0.8751723 0.9495546 0.0928090
0.8853988 0.9495546 0.0928090
0.8947353 0.9495546 0.0928090
0.9033244 0.9495546 0.0928090
0.9112769 0.9495546 0.0928090
0.9186808 0.9495546 0.0928090
0.9256067 0.9495546 0.0928090
0.9321128 0.9495546 0.0928090
0.9382470 0.9495546 0.0928090
0.9440496 0.9495546 0.0928090
0.9495546 0.9495546 0.0928090
0.9547910 0.9495546 0.0928090
0.9597838 0.9495546 0.0928090
0.9645547 0.9495546 0.0928090
0.9691225 0.9495546 0.0928090
0.9735039 0.9495546 0.0928090
0.9777135 0.9495546 0.0928090
0.9817642 0.9495546 0.0928090
0.9856676 0.9495546 0.0928090
0.9894340 0.9495546 0.0928090
0.9930728 0.9495546 0.0928090
0.9965923 0.9495546 0.0928090
1.0000000 0.9495546 0.0928090
0.0928090 0.9547910 0.0928090
0.6285089 0.9547910 0.0928090
0.7026283 0.9547910 0.0928090
0.7460587 0.9547910 0.0928090
0.7768935 0.9547910 0.0928090
0.8008193 0.9547910 0.0928090
0.8203726 0.9547910 0.0928090
0.8369072 0.9547910 0.0928090
0.8512318 0.9547910 0.0928090
0.8638680 0.9547910 0.0928090
0.8751723 0.9547910 0.0928090
0.8853988 0.9547910 0.0928090
0.8947353 0.9547910 0.0928090
0.9033244 0.9547910 0.0928090
0.9112769 0.9547910 0.0928090
0.9186808 0.9547910 0.0928090
0.9256067 0.9547910 0.0928090
0.9321128 0.9547910 0.0928090
0.9382470 0.9547910 0.0928090
0.9440496 0.9547910 0.0928090
0.9495546 0.9547910 0.0928090
0.9547910 0.9547910 0.0928090
0.9597838 0.9547910 0.0928090
0.9645547 0.9547910 0.0928090
0.9691225 0.9547910 0.0928090
0.9735039 0.9547910 0.0928090
0.9777135 0.9547910 0.0928090
0.9817642 0.9547910 0.0928090
0.9856676 0.9547910 0.0928090
0.9894340 0.9547910 0.0928090
0.9930728 0.9547910 0.0928090
0.9965923 0.9547910 0.0928090
1.0000000 0.9547910 0.0928090
0.0928090 0.9597838 0.0928090
0.6285089 0.9597838 0.0928090
0.7026283 0.9597838 0.0928090
0.7460587 0.9597838 0.0928090
0.7768935 0.9597838 0.0928090
0.8008193 0.9597838 0.0928090
0.8203726 0.9597838 0.0928090
0.8369072 0.9597838 0.0928090
0.8512318 0.9597838 0.0928090
0.8638680 0.9597838 0.0928090
0.8751723 0.9597838 0.0928090
0.8853988 0.9597838 0.0928090
0.8947353 0.9597838 0.0928090
0.9033244 0.9597838 0.0928090
0.9112769 0.9597838 0.0928090
0.9186808 0.9597838 0.0928090
0.9256067 0.9597838 0.0928090
0.9321128 0.9597838 0.0928090
0.9382470 0.9597838 0.0928090
0.9440496 0.9597838 0.0928090
0.9495546 0.9597838 0.0928090
0.9547910 0.9597838 0.0928090
0.9597838 0.9597838 0.0928090
0.9645547 0.9597838 0.0928090
0.9691225 0.9597838 0.0928090
0.9735039 0.9597838 0.0928090
0.9777135 0.9597838 0.0928090
0.9817642 0.9597838 0.0928090
0.9856676 0.9597838 0.0928090
0.9894340 0.9597838 0.0928090
0.9930728 0.9597838 0.0928090
0.9965923 0.9597838 0.0928090
1.0000000 0.9597838 0.0928090
0.0928090 0.9645547 0.0928090
0.6285089 0.9645547 0.0928090
0.7026283 0.9645547 0.0928090
0.7460587 0.9645547 0.0928090
0.7768935 0.9645547 0.0928090
0.8008193 0.9645547 0.0928090
0.8203726 0.9645547 0.0928090
0.8369072 0.9645547 0.0928090
0.8512318 0.9645547 0.0928090
0.8638680 0.9645547 0.0928090
0.8751723 0.9645547 0.0928090
0.8853988 0.9645547 0.0928090
0.8947353 0.9645547 0.0928090
0.9033244 0.9645547 0.0928090
0.9112769 0.9645547 0.0928090
0.9186808 0.9645547 0.0928090
0.9256067 0.9645547 0.0928090
0.9321128 0.9645547 0.0928090
0.9382470 0.9645547 0.0928090
0.9440496 0.9645547 0.0928090
0.9495546 0.9645547 0.0928090
0.9547910 0.9645547 0.0928090
0.9597838 0.9645547 0.0928090
0.9645547 0.9645547 0.0928090
0.9691225 0.9645547 0.0928090
0.9735039 0.9645547 0.0928090
0.9777135 0.9645547 0.0928090
0.9817642 0.9645547 0.0928090
0.9856676 0.9645547 0.0928090
0.9894340 0.9645547 0.0928090
0.9930728 0.9645547 0.0928090
0.9965923 0.9645547 0.0928090
1.0000000 0.9645547 0.0928090
0.0928090 0.9691225 0.0928090
0.6285089 0.9691225 0.0928090
0.7026283 0.9691225 0.0928090
