tests/color-grading-smoke/reference_luts/logc_to_linear_33.cube
TITLE "logc_to_linear"
# logc_to_linear
LUT_3D_SIZE 33
0.0000000 0.0000000 0.0000000
0.0000000 0.0000000 0.0000000
0.0000000 0.0000000 0.0000000
0.0001753 0.0000000 0.0000000
0.0059972 0.0000000 0.0000000
0.0118577 0.0000000 0.0000000
0.0190435 0.0000000 0.0000000
0.0286573 0.0000000 0.0000000
0.0415196 0.0000000 0.0000000
0.0587279 0.0000000 0.0000000
0.0817508 0.0000000 0.0000000
0.1125530 0.0000000 0.0000000
0.1537629 0.0000000 0.0000000
0.2088974 0.0000000 0.0000000
0.2826613 0.0000000 0.0000000
0.3813494 0.0000000 0.0000000
0.5133834 0.0000000 0.0000000
0.6900306 0.0000000 0.0000000
0.9263655 0.0000000 0.0000000
1.2425559 0.0000000 0.0000000
1.6655845 0.0000000 0.0000000
2.2315509 0.0000000 0.0000000
2.9887528 0.0000000 0.0000000
4.0018069 0.0000000 0.0000000
5.3571636 0.0000000 0.0000000
7.1704841 0.0000000 0.0000000
9.5965106 0.0000000 0.0000000
12.8422715 0.0000000 0.0000000
17.1847481 0.0000000 0.0000000
22.9945117 0.0000000 0.0000000
30.7673464 0.0000000 0.0000000
41.1665578 0.0000000 0.0000000
55.0795767 0.0000000 0.0000000
0.0000000 0.0000000 0.0000000
0.0000000 0.0000000 0.0000000
0.0000000 0.0000000 0.0000000
0.0001753 0.0000000 0.0000000
0.0059972 0.0000000 0.0000000
0.0118577 0.0000000 0.0000000
0.0190435 0.0000000 0.0000000
0.0286573 0.0000000 0.0000000
0.0415196 0.0000000 0.0000000
0.0587279 0.0000000 0.0000000
0.0817508 0.0000000 0.0000000
0.1125530 0.0000000 0.0000000
0.1537629 0.0000000 0.0000000
0.2088974 0.0000000 0.0000000
0.2826613 0.0000000 0.0000000
0.3813494 0.0000000 0.0000000
0.5133834 0.0000000 0.0000000
0.6900306 0.0000000 0.0000000
0.9263655 0.0000000 0.0000000
1.2425559 0.0000000 0.0000000
1.6655845 0.0000000 0.0000000
2.2315509 0.0000000 0.0000000
2.9887528 0.0000000 0.0000000
4.0018069 0.0000000 0.0000000
5.3571636 0.0000000 0.0000000
7.1704841 0.0000000 0.0000000
9.5965106 0.0000000 0.0000000
12.8422715 0.0000000 0.0000000
17.1847481 0.0000000 0.0000000
22.9945117 0.0000000 0.0000000
30.7673464 0.0000000 0.0000000
41.1665578 0.0000000 0.0000000
55.0795767 0.0000000 0.0000000
0.0000000 0.0000000 0.0000000
0.0000000 0.0000000 0.0000000
0.0000000 0.0000000 0.0000000
0.0001753 0.0000000 0.0000000
0.0059972 0.0000000 0.0000000
0.0118577 0.0000000 0.0000000
0.0190435 0.0000000 0.0000000
0.0286573 0.0000000 0.0000000
0.0415196 0.0000000 0.0000000
0.0587279 0.0000000 0.0000000
0.0817508 0.0000000 0.0000000
0.1125530 0.0000000 0.0000000
0.1537629 0.0000000 0.0000000
0.2088974 0.0000000 0.0000000
0.2826613 0.0000000 0.0000000
0.3813494 0.0000000 0.0000000
0.5133834 0.0000000 0.0000000
0.6900306 0.0000000 0.0000000
0.9263655 0.0000000 0.0000000
1.2425559 0.0000000 0.0000000
1.6655845 0.0000000 0.0000000
2.2315509 0.0000000 0.0000000
2.9887528 0.0000000 0.0000000
4.0018069 0.0000000 0.0000000
5.3571636 0.0000000 0.0000000
7.1704841 0.0000000 0.0000000
9.5965106 0.0000000 0.0000000
12.8422715 0.0000000 0.0000000
17.1847481 0.0000000 0.0000000
22.9945117 0.0000000 0.0000000
30.7673464 0.0000000 0.0000000
41.1665578 0.0000000 0.0000000
55.0795767 0.0000000 0.0000000
0.0000000 0.0001753 0.0000000
0.0000000 0.0001753 0.0000000
0.0000000 0.0001753 0.0000000
0.0001753 0.0001753 0.0000000
0.0059972 0.0001753 0.0000000
0.0118577 0.0001753 0.0000000
0.0190435 0.0001753 0.0000000
0.0286573 0.0001753 0.0000000
0.0415196 0.0001753 0.0000000
0.0587279 0.0001753 0.0000000
0.0817508 0.0001753 0.0000000
0.1125530 0.0001753 0.0000000
0.1537629 0.0001753 0.0000000
0.2088974 0.0001753 0.0000000
0.2826613 0.0001753 0.0000000
0.3813494 0.0001753 0.0000000
0.5133834 0.0001753 0.0000000
0.6900306 0.0001753 0.0000000
0.9263655 0.0001753 0.0000000
1.2425559 0.0001753 0.0000000
1.6655845 0.0001753 0.0000000
2.2315509 0.0001753 0.0000000
2.9887528 0.0001753 0.0000000
4.0018069 0.0001753 0.0000000
5.3571636 0.0001753 0.0000000
7.1704841 0.0001753 0.0000000
9.5965106 0.0001753 0.0000000
12.8422715 0.0001753 0.0000000
17.1847481 0.0001753 0.0000000
22.9945117 0.0001753 0.0000000
30.7673464 0.0001753 0.0000000
41.1665578 0.0001753 0.0000000
55.0795767 0.0001753 0.0000000
0.0000000 0.0059972 0.0000000
0.0000000 0.0059972 0.0000000
0.0000000 0.0059972 0.0000000
0.0001753 0.0059972 0.0000000
0.0059972 0.0059972 0.0000000
0.0118577 0.0059972 0.0000000
0.0190435 0.0059972 0.0000000
0.0286573 0.0059972 0.0000000
0.0415196 0.0059972 0.0000000
0.0587279 0.0059972 0.0000000
0.0817508 0.0059972 0.0000000
0.1125530 0.0059972 0.0000000
0.1537629 0.0059972 0.0000000
0.2088974 0.0059972 0.0000000
0.2826613 0.0059972 0.0000000
0.3813494 0.0059972 0.0000000
0.5133834 0.0059972 0.0000000
0.6900306 0.0059972 0.0000000
0.9263655 0.0059972 0.0000000
1.2425559 0.0059972 0.0000000
1.6655845 0.0059972 0.0000000
2.2315509 0.0059972 0.0000000
2.9887528 0.0059972 0.0000000
4.0018069 0.0059972 0.0000000
5.3571636 0.0059972 0.0000000
7.1704841 0.0059972 0.0000000
9.5965106 0.0059972 0.0000000
12.8422715 0.0059972 0.0000000
17.1847481 0.0059972 0.0000000
22.9945117 0.0059972 0.0000000
30.7673464 0.0059972 0.0000000
41.1665578 0.0059972 0.0000000
55.0795767 0.0059972 0.0000000
0.0000000 0.0118577 0.0000000
0.0000000 0.0118577 0.0000000
0.0000000 0.0118577 0.0000000
0.0001753 0.0118577 0.0000000
0.0059972 0.0118577 0.0000000
0.0118577 0.0118577 0.0000000
0.0190435 0.0118577 0.0000000
0.0286573 0.0118577 0.0000000
0.0415196 0.0118577 0.0000000
0.0587279 0.0118577 0.0000000
0.0817508 0.0118577 0.0000000
0.1125530 0.0118577 0.0000000
0.1537629 0.0118577 0.0000000
0.2088974 0.0118577 0.0000000
0.2826613 0.0118577 0.0000000
0.3813494 0.0118577 0.0000000
0.5133834 0.0118577 0.0000000
0.6900306 0.0118577 0.0000000
0.9263655 0.0118577 0.0000000
1.2425559 0.0118577 0.0000000
1.6655845 0.0118577 0.0000000
2.2315509 0.0118577 0.0000000
2.9887528 0.0118577 0.0000000
4.0018069 0.0118577 0.0000000
5.3571636 0.0118577 0.0000000
7.1704841 0.0118577 0.0000000
9.5965106 0.0118577 0.0000000
12.8422715 0.0118577 0.0000000
17.1847481 0.0118577 0.0000000
22.9945117 0.0118577 0.0000000
30.7673464 0.0118577 0.0000000
41.1665578 0.0118577 0.0000000
55.0795767 0.0118577 0.0000000
0.0000000 0.0190435 0.0000000
0.0000000 0.0190435 0.0000000
0.0000000 0.0190435 0.0000000
0.0001753 0.0190435 0.0000000
0.0059972 0.0190435 0.0000000
0.0118577 0.0190435 0.0000000
0.0190435 0.0190435 0.0000000
0.0286573 0.0190435 0.0000000
0.0415196 0.0190435 0.0000000
0.0587279 0.0190435 0.0000000
0.0817508 0.0190435 0.0000000
0.1125530 0.0190435 0.0000000
0.1537629 0.0190435 0.0000000
0.2088974 0.0190435 0.0000000
0.2826613 0.0190435 0.0000000
0.3813494 0.0190435 0.0000000
0.5133834 0.0190435 0.0000000
0.6900306 0.0190435 0.0000000
0.9263655 0.0190435 0.0000000
1.2425559 0.0190435 0.0000000
1.6655845 0.0190435 0.0000000
2.2315509 0.0190435 0.0000000
2.9887528 0.0190435 0.0000000
4.0018069 0.0190435 0.0000000
5.3571636 0.0190435 0.0000000
7.1704841 0.0190435 0.0000000
9.5965106 0.0190435 0.0000000
12.8422715 0.0190435 0.0000000
17.1847481 0.0190435 0.0000000
22.9945117 0.0190435 0.0000000
30.7673464 0.0190435 0.0000000
41.1665578 0.0190435 0.0000000
55.0795767 0.0190435 0.0000000
0.0000000 0.0286573 0.0000000
0.0000000 0.0286573 0.0000000
0.0000000 0.0286573 0.0000000
0.0001753 0.0286573 0.0000000
0.0059972 0.0286573 0.0000000
0.0118577 0.0286573 0.0000000
0.0190435 0.0286573 0.0000000
0.0286573 0.0286573 0.0000000
0.0415196 0.0286573 0.0000000
0.0587279 0.0286573 0.0000000
0.0817508 0.0286573 0.0000000
0.1125530 0.0286573 0.0000000
0.1537629 0.0286573 0.0000000
0.2088974 0.0286573 0.0000000
0.2826613 0.0286573 0.0000000
0.3813494 0.0286573 0.0000000
0.5133834 0.0286573 0.0000000
0.6900306 0.0286573 0.0000000
0.9263655 0.0286573 0.0000000
1.2425559 0.0286573 0.0000000
1.6655845 0.0286573 0.0000000
2.2315509 0.0286573 0.0000000
2.9887528 0.0286573 0.0000000
4.0018069 0.0286573 0.0000000
5.3571636 0.0286573 0.0000000
7.1704841 0.0286573 0.0000000
9.5965106 0.0286573 0.0000000
12.8422715 0.0286573 0.0000000
17.1847481 0.0286573 0.0000000
22.9945117 0.0286573 0.0000000
30.7673464 0.0286573 0.0000000
41.1665578 0.0286573 0.0000000
55.0795767 0.0286573 0.0000000
0.0000000 0.0415196 0.0000000
0.0000000 0.0415196 0.0000000
0.0000000 0.0415196 0.0000000
0.0001753 0.0415196 0.0000000
0.0059972 0.0415196 0.0000000
0.0118577 0.0415196 0.0000000
0.0190435 0.0415196 0.0000000
0.0286573 0.0415196 0.0000000
0.0415196 0.0415196 0.0000000
0.0587279 0.0415196 0.0000000
0.0817508 0.0415196 0.0000000
0.1125530 0.0415196 0.0000000
0.1537629 0.0415196 0.0000000
0.2088974 0.0415196 0.0000000
0.2826613 0.0415196 0.0000000
0.3813494 0.0415196 0.0000000
0.5133834 0.0415196 0.0000000
0.6900306 0.0415196 0.0000000
0.9263655 0.0415196 0.0000000
1.2425559 0.0415196 0.0000000
1.6655845 0.0415196 0.0000000
2.2315509 0.0415196 0.0000000
2.9887528 0.0415196 0.0000000
4.0018069 0.0415196 0.0000000
5.3571636 0.0415196 0.0000000
7.1704841 0.0415196 0.0000000
9.5965106 0.0415196 0.0000000
12.8422715 0.0415196 0.0000000
17.1847481 0.0415196 0.0000000
22.9945117 0.0415196 0.0000000
30.7673464 0.0415196 0.0000000
41.1665578 0.0415196 0.0000000
55.0795767 0.0415196 0.0000000
0.0000000 0.0587279 0.0000000
0.0000000 0.0587279 0.0000000
0.0000000 0.0587279 0.0000000
0.0001753 0.0587279 0.0000000
0.0059972 0.0587279 0.0000000
0.0118577 0.0587279 0.0000000
0.0190435 0.0587279 0.0000000
0.0286573 0.0587279 0.0000000
0.0415196 0.0587279 0.0000000
0.0587279 0.0587279 0.0000000
0.0817508 0.0587279 0.0000000
0.1125530 0.0587279 0.0000000
0.1537629 0.0587279 0.0000000
0.2088974 0.0587279 0.0000000
0.2826613 0.0587279 0.0000000
0.3813494 0.0587279 0.0000000
0.5133834 0.0587279 0.0000000
0.6900306 0.0587279 0.0000000
0.9263655 0.0587279 0.0000000
1.2425559 0.0587279 0.0000000
1.6655845 0.0587279 0.0000000
2.2315509 0.0587279 0.0000000
2.9887528 0.0587279 0.0000000
4.0018069 0.0587279 0.0000000
5.3571636 0.0587279 0.0000000
7.1704841 0.0587279 0.0000000
9.5965106 0.0587279 0.0000000
12.8422715 0.0587279 0.0000000
17.1847481 0.0587279 0.0000000
22.9945117 0.0587279 0.0000000
30.7673464 0.0587279 0.0000000
41.1665578 0.0587279 0.0000000
55.0795767 0.0587279 0.0000000
0.0000000 0.0817508 0.0000000
0.0000000 0.0817508 0.0000000
0.0000000 0.0817508 0.0000000
0.0001753 0.0817508 0.0000000
0.0059972 0.0817508 0.0000000
0.0118577 0.0817508 0.0000000
0.0190435 0.0817508 0.0000000
0.0286573 0.0817508 0.0000000
0.0415196 0.0817508 0.0000000
0.0587279 0.0817508 0.0000000
0.0817508 0.0817508 0.0000000
0.1125530 0.0817508 0.0000000
0.1537629 0.0817508 0.0000000
0.2088974 0.0817508 0.0000000
0.2826613 0.0817508 0.0000000
0.3813494 0.0817508 0.0000000
0.5133834 0.0817508 0.0000000
0.6900306 0.0817508 0.0000000
0.9263655 0.0817508 0.0000000
1.2425559 0.0817508 0.0000000
1.6655845 0.0817508 0.0000000
2.2315509 0.0817508 0.0000000
2.9887528 0.0817508 0.0000000
4.0018069 0.0817508 0.0000000
5.3571636 0.0817508 0.0000000
7.1704841 0.0817508 0.0000000
9.5965106 0.0817508 0.0000000
12.8422715 0.0817508 0.0000000
17.1847481 0.0817508 0.0000000
22.9945117 0.0817508 0.0000000
30.7673464 0.0817508 0.0000000
41.1665578 0.0817508 0.0000000
55.0795767 0.0817508 0.0000000
0.0000000 0.1125530 0.0000000
0.0000000 0.1125530 0.0000000
0.0000000 0.1125530 0.0000000
0.0001753 0.1125530 0.0000000
0.0059972 0.1125530 0.0000000
0.0118577 0.1125530 0.0000000
0.0190435 0.1125530 0.0000000
0.0286573 0.1125530 0.0000000
0.0415196 0.1125530 0.0000000
0.0587279 0.1125530 0.0000000
0.0817508 0.1125530 0.0000000
0.1125530 0.1125530 0.0000000
0.1537629 0.1125530 0.0000000
0.2088974 0.1125530 0.0000000
0.2826613 0.1125530 0.0000000
0.3813494 0.1125530 0.0000000
0.5133834 0.1125530 0.0000000
0.6900306 0.1125530 0.0000000
0.9263655 0.1125530 0.0000000
1.2425559 0.1125530 0.0000000
1.6655845 0.1125530 0.0000000
2.2315509 0.1125530 0.0000000
2.9887528 0.1125530 0.0000000
4.0018069 0.1125530 0.0000000
5.3571636 0.1125530 0.0000000
7.1704841 0.1125530 0.0000000
9.5965106 0.1125530 0.0000000
12.8422715 0.1125530 0.0000000
17.1847481 0.1125530 0.0000000
22.9945117 0.1125530 0.0000000
30.7673464 0.1125530 0.0000000
41.1665578 0.1125530 0.0000000
55.0795767 0.1125530 0.0000000
0.0000000 0.1537629 0.0000000
0.0000000 0.1537629 0.0000000
0.0000000 0.1537629 0.0000000
0.0001753 0.1537629 0.0000000
0.0059972 0.1537629 0.0000000
0.0118577 0.1537629 0.0000000
0.0190435 0.1537629 0.0000000
0.0286573 0.1537629 0.0000000
0.0415196 0.1537629 0.0000000
0.0587279 0.1537629 0.0000000
0.0817508 0.1537629 0.0000000
0.1125530 0.1537629 0.0000000
0.1537629 0.1537629 0.0000000
0.2088974 0.1537629 0.0000000
0.2826613 0.1537629 0.0000000
0.3813494 0.1537629 0.0000000
0.5133834 0.1537629 0.0000000
0.6900306 0.1537629 0.0000000
0.9263655 0.1537629 0.0000000
1.2425559 0.1537629 0.0000000
1.6655845 0.1537629 0.0000000
2.2315509 0.1537629 0.0000000
2.9887528 0.1537629 0.0000000
4.0018069 0.1537629 0.0000000
5.3571636 0.1537629 0.0000000
7.1704841 0.1537629 0.0000000
9.5965106 0.1537629 0.0000000
12.8422715 0.1537629 0.0000000
17.1847481 0.1537629 0.0000000
22.9945117 0.1537629 0.0000000
30.7673464 0.1537629 0.0000000
41.1665578 0.1537629 0.0000000
55.0795767 0.1537629 0.0000000
0.0000000 0.2088974 0.0000000
0.0000000 0.2088974 0.0000000
0.0000000 0.2088974 0.0000000
0.0001753 0.2088974 0.0000000
0.0059972 0.2088974 0.0000000
0.0118577 0.2088974 0.0000000
0.0190435 0.2088974 0.0000000
0.0286573 0.2088974 0.0000000
0.0415196 0.2088974 0.0000000
0.0587279 0.2088974 0.0000000
0.0817508 0.2088974 0.0000000
0.1125530 0.2088974 0.0000000
0.1537629 0.2088974 0.0000000
0.2088974 0.2088974 0.0000000
0.2826613 0.2088974 0.0000000
0.3813494 0.2088974 0.0000000
0.5133834 0.2088974 0.0000000
0.6900306 0.2088974 0.0000000
0.9263655 0.2088974 0.0000000
1.2425559 0.2088974 0.0000000
1.6655845 0.2088974 0.0000000
2.2315509 0.2088974 0.0000000
2.9887528 0.2088974 0.0000000
4.0018069 0.2088974 0.0000000
5.3571636 0.2088974 0.0000000
7.1704841 0.2088974 0.0000000
9.5965106 0.2088974 0.0000000
12.8422715 0.2088974 0.0000000
17.1847481 0.2088974 0.0000000
22.9945117 0.2088974 0.0000000
30.7673464 0.2088974 0.0000000
41.1665578 0.2088974 0.0000000
55.0795767 0.2088974 0.0000000
0.0000000 0.2826613 0.0000000
0.0000000 0.2826613 0.0000000
0.0000000 0.2826613 0.0000000
0.0001753 0.2826613 0.0000000
0.0059972 0.2826613 0.0000000
0.0118577 0.2826613 0.0000000
0.0190435 0.2826613 0.0000000
0.0286573 0.2826613 0.0000000
0.0415196 0.2826613 0.0000000
0.0587279 0.2826613 0.0000000
0.0817508 0.2826613 0.0000000
0.1125530 0.2826613 0.0000000
0.1537629 0.2826613 0.0000000
0.2088974 0.2826613 0.0000000
0.2826613 0.2826613 0.0000000
0.3813494 0.2826613 0.0000000
0.5133834 0.2826613 0.0000000
0.6900306 0.2826613 0.0000000
0.9263655 0.2826613 0.0000000
1.2425559 0.2826613 0.0000000
1.6655845 0.2826613 0.0000000
2.2315509 0.2826613 0.0000000
2.9887528 0.2826613 0.0000000
4.0018069 0.2826613 0.0000000
5.3571636 0.2826613 0.0000000
7.1704841 0.2826613 0.0000000
9.5965106 0.2826613 0.0000000
12.8422715 0.2826613 0.0000000
17.1847481 0.2826613 0.0000000
22.9945117 0.2826613 0.0000000
30.7673464 0.2826613 0.0000000
41.1665578 0.2826613 0.0000000
55.0795767 0.2826613 0.0000000
0.0000000 0.3813494 0.0000000
0.0000000 0.3813494 0.0000000
0.0000000 0.3813494 0.0000000
0.0001753 0.3813494 0.0000000
0.0059972 0.3813494 0.0000000
0.0118577 0.3813494 0.0000000
0.0190435 0.3813494 0.0000000
0.0286573 0.3813494 0.0000000
0.0415196 0.3813494 0.0000000
0.0587279 0.3813494 0.0000000
0.0817508 0.3813494 0.0000000
0.1125530 0.3813494 0.0000000
0.1537629 0.3813494 0.0000000
0.2088974 0.3813494 0.0000000
0.2826613 0.3813494 0.0000000
0.3813494 0.3813494 0.0000000
0.5133834 0.3813494 0.0000000
0.6900306 0.3813494 0.0000000
0.9263655 0.3813494 0.0000000
1.2425559 0.3813494 0.0000000
1.6655845 0.3813494 0.0000000
2.2315509 0.3813494 0.0000000
2.9887528 0.3813494 0.0000000
4.0018069 0.3813494 0.0000000
5.3571636 0.3813494 0.0000000
7.1704841 0.3813494 0.0000000
9.5965106 0.3813494 0.0000000
12.8422715 0.3813494 0.0000000
17.1847481 0.3813494 0.0000000
22.9945117 0.3813494 0.0000000
30.7673464 0.3813494 0.0000000
41.1665578 0.3813494 0.0000000
55.0795767 0.3813494 0.0000000
0.0000000 0.5133834 0.0000000
0.0000000 0.5133834 0.0000000
0.0000000 0.5133834 0.0000000
0.0001753 0.5133834 0.0000000
0.0059972 0.5133834 0.0000000
0.0118577 0.5133834 0.0000000
0.0190435 0.5133834 0.0000000
0.0286573 0.5133834 0.0000000
0.0415196 0.5133834 0.0000000
0.0587279 0.5133834 0.0000000
0.0817508 0.5133834 0.0000000
0.1125530 0.5133834 0.0000000
0.1537629 0.5133834 0.0000000
0.2088974 0.5133834 0.0000000
0.2826613 0.5133834 0.0000000
0.3813494 0.5133834 0.0000000
0.5133834 0.5133834 0.0000000
0.6900306 0.5133834 0.0000000
0.9263655 0.5133834 0.0000000
1.2425559 0.5133834 0.0000000
1.6655845 0.5133834 0.0000000
2.2315509 0.5133834 0.0000000
2.9887528 0.5133834 0.0000000
4.0018069 0.5133834 0.0000000
5.3571636 0.5133834 0.0000000
7.1704841 0.5133834 0.0000000
9.5965106 0.5133834 0.0000000
12.8422715 0.5133834 0.0000000
17.1847481 0.5133834 0.0000000
22.9945117 0.5133834 0.0000000
30.7673464 0.5133834 0.0000000
41.1665578 0.5133834 0.0000000
55.0795767 0.5133834 0.0000000
0.0000000 0.6900306 0.0000000
0.0000000 0.6900306 0.0000000
0.0000000 0.6900306 0.0000000
0.0001753 0.6900306 0.0000000
0.0059972 0.6900306 0.0000000
0.0118577 0.6900306 0.0000000
0.0190435 0.6900306 0.0000000
0.0286573 0.6900306 0.0000000
0.0415196 0.6900306 0.0000000
0.0587279 0.6900306 0.0000000
0.0817508 0.6900306 0.0000000
0.1125530 0.6900306 0.0000000
0.1537629 0.6900306 0.0000000
0.2088974 0.6900306 0.0000000
0.2826613 0.6900306 0.0000000
0.3813494 0.6900306 0.0000000
0.5133834 0.6900306 0.0000000
0.6900306 0.6900306 0.0000000
0.9263655 0.6900306 0.0000000
1.2425559 0.6900306 0.0000000
1.6655845 0.6900306 0.0000000
2.2315509 0.6900306 0.0000000
2.9887528 0.6900306 0.0000000
4.0018069 0.6900306 0.0000000
5.3571636 0.6900306 0.0000000
7.1704841 0.6900306 0.0000000
9.5965106 0.6900306 0.0000000
12.8422715 0.6900306 0.0000000
17.1847481 0.6900306 0.0000000
22.9945117 0.6900306 0.0000000
30.7673464 0.6900306 0.0000000
41.1665578 0.6900306 0.0000000
55.0795767 0.6900306 0.0000000
0.0000000 0.9263655 0.0000000
0.0000000 0.9263655 0.0000000
0.0000000 0.9263655 0.0000000
0.0001753 0.9263655 0.0000000
0.0059972 0.9263655 0.0000000
0.0118577 0.9263655 0.0000000
0.0190435 0.9263655 0.0000000
0.0286573 0.9263655 0.0000000
0.0415196 0.9263655 0.0000000
0.0587279 0.9263655 0.0000000
0.0817508 0.9263655 0.0000000
0.1125530 0.9263655 0.0000000
0.1537629 0.9263655 0.0000000
0.2088974 0.9263655 0.0000000
0.2826613 0.9263655 0.0000000
0.3813494 0.9263655 0.0000000
0.5133834 0.9263655 0.0000000
0.6900306 0.9263655 0.0000000
0.9263655 0.9263655 0.0000000
1.2425559 0.9263655 0.0000000
1.6655845 0.9263655 0.0000000
2.2315509 0.9263655 0.0000000
2.9887528 0.9263655 0.0000000
4.0018069 0.9263655 0.0000000
5.3571636 0.9263655 0.0000000
7.1704841 0.9263655 0.0000000
9.5965106 0.9263655 0.0000000
12.8422715 0.9263655 0.0000000
17.1847481 0.9263655 0.0000000
22.9945117 0.9263655 0.0000000
30.7673464 0.9263655 0.0000000
41.1665578 0.9263655 0.0000000
55.0795767 0.9263655 0.0000000
0.0000000 1.2425559 0.0000000
0.0000000 1.2425559 0.0000000
0.0000000 1.2425559 0.0000000
0.0001753 1.2425559 0.0000000
0.0059972 1.2425559 0.0000000
0.0118577 1.2425559 0.0000000
0.0190435 1.2425559 0.0000000
0.0286573 1.2425559 0.0000000
0.0415196 1.2425559 0.0000000
0.0587279 1.2425559 0.0000000
0.0817508 1.2425559 0.0000000
0.1125530 1.2425559 0.0000000
0.1537629 1.2425559 0.0000000
0.2088974 1.2425559 0.0000000
0.2826613 1.2425559 0.0000000
0.3813494 1.2425559 0.0000000
0.5133834 1.2425559 0.0000000
0.6900306 1.2425559 0.0000000
0.9263655 1.2425559 0.0000000
1.2425559 1.2425559 0.0000000
1.6655845 1.2425559 0.0000000
2.2315509 1.2425559 0.0000000
2.9887528 1.2425559 0.0000000
4.0018069 1.2425559 0.0000000
5.3571636 1.2425559 0.0000000
7.1704841 1.2425559 0.0000000
9.5965106 1.2425559 0.0000000
12.8422715 1.2425559 0.0000000
17.1847481 1.2425559 0.0000000
22.9945117 1.2425559 0.0000000
30.7673464 1.2425559 0.0000000
41.1665578 1.2425559 0.0000000
55.0795767 1.2425559 0.0000000
0.0000000 1.6655845 0.0000000
0.0000000 1.6655845 0.0000000
0.0000000 1.6655845 0.0000000
0.0001753 1.6655845 0.0000000
0.0059972 1.6655845 0.0000000
0.0118577 1.6655845 0.0000000
0.0190435 1.6655845 0.0000000
0.0286573 1.6655845 0.0000000
0.0415196 1.6655845 0.0000000
0.0587279 1.6655845 0.0000000
0.0817508 1.6655845 0.0000000
0.1125530 1.6655845 0.0000000
0.1537629 1.6655845 0.0000000
0.2088974 1.6655845 0.0000000
0.2826613 1.6655845 0.0000000
0.3813494 1.6655845 0.0000000
0.5133834 1.6655845 0.0000000
0.6900306 1.6655845 0.0000000
0.9263655 1.6655845 0.0000000
1.2425559 1.6655845 0.0000000
1.6655845 1.6655845 0.0000000
2.2315509 1.6655845 0.0000000
2.9887528 1.6655845 0.0000000
4.0018069 1.6655845 0.0000000
5.3571636 1.6655845 0.0000000
7.1704841 1.6655845 0.0000000
9.5965106 1.6655845 0.0000000
12.8422715 1.6655845 0.0000000
17.1847481 1.6655845 0.0000000
22.9945117 1.6655845 0.0000000
30.7673464 1.6655845 0.0000000
41.1665578 1.6655845 0.0000000
55.0795767 1.6655845 0.0000000
0.0000000 2.2315509 0.0000000
0.0000000 2.2315509 0.0000000
0.0000000 2.2315509 0.0000000
0.0001753 2.2315509 0.0000000
0.0059972 2.2315509 0.0000000
0.0118577 2.2315509 0.0000000
0.0190435 2.2315509 0.0000000
0.0286573 2.2315509 0.0000000
0.0415196 2.2315509 0.0000000
0.0587279 2.2315509 0.0000000
0.0817508 2.2315509 0.0000000
0.1125530 2.2315509 0.0000000
0.1537629 2.2315509 0.0000000
0.2088974 2.2315509 0.0000000
0.2826613 2.2315509 0.0000000
0.3813494 2.2315509 0.0000000
0.5133834 2.2315509 0.0000000
0.6900306 2.2315509 0.0000000
0.9263655 2.2315509 0.0000000
1.2425559 2.2315509 0.0000000
1.6655845 2.2315509 0.0000000
2.2315509 2.2315509 0.0000000
2.9887528 2.2315509 0.0000000
4.0018069 2.2315509 0.0000000
5.3571636 2.2315509 0.0000000
7.1704841 2.2315509 0.0000000
9.5965106 2.2315509 0.0000000
12.8422715 2.2315509 0.0000000
17.1847481 2.2315509 0.0000000
22.9945117 2.2315509 0.0000000
30.7673464 2.2315509 0.0000000
41.1665578 2.2315509 0.0000000
55.0795767 2.2315509 0.0000000
0.0000000 2.9887528 0.0000000
0.0000000 2.9887528 0.0000000
0.0000000 2.9887528 0.0000000
0.0001753 2.9887528 0.0000000
0.0059972 2.9887528 0.0000000
0.0118577 2.9887528 0.0000000
0.0190435 2.9887528 0.0000000
0.0286573 2.9887528 0.0000000
0.0415196 2.9887528 0.0000000
0.0587279 2.9887528 0.0000000
0.0817508 2.9887528 0.0000000
0.1125530 2.9887528 0.0000000
0.1537629 2.9887528 0.0000000
0.2088974 2.9887528 0.0000000
0.2826613 2.9887528 0.0000000
0.3813494 2.9887528 0.0000000
0.5133834 2.9887528 0.0000000
0.6900306 2.9887528 0.0000000
0.9263655 2.9887528 0.0000000
1.2425559 2.9887528 0.0000000
1.6655845 2.9887528 0.0000000
2.2315509 2.9887528 0.0000000
2.9887528 2.9887528 0.0000000
4.0018069 2.9887528 0.0000000
5.3571636 2.9887528 0.0000000
7.1704841 2.9887528 0.0000000
9.5965106 2.9887528 0.0000000
12.8422715 2.9887528 0.0000000
17.1847481 2.9887528 0.0000000
22.9945117 2.9887528 0.0000000
30.7673464 2.9887528 0.0000000
41.1665578 2.9887528 0.0000000
55.0795767 2.9887528 0.0000000
0.0000000 4.0018069 0.0000000
0.0000000 4.0018069 0.0000000
0.0000000 4.0018069 0.0000000
0.0001753 4.0018069 0.0000000
0.0059972 4.0018069 0.0000000
0.0118577 4.0018069 0.0000000
0.0190435 4.0018069 0.0000000
0.0286573 4.0018069 0.0000000
0.0415196 4.0018069 0.0000000
0.0587279 4.0018069 0.0000000
0.0817508 4.0018069 0.0000000
0.1125530 4.0018069 0.0000000
0.1537629 4.0018069 0.0000000
0.2088974 4.0018069 0.0000000
0.2826613 4.0018069 0.0000000
0.3813494 4.0018069 0.0000000
0.5133834 4.0018069 0.0000000
0.6900306 4.0018069 0.0000000
0.9263655 4.0018069 0.0000000
1.2425559 4.0018069 0.0000000
1.6655845 4.0018069 0.0000000
2.2315509 4.0018069 0.0000000
2.9887528 4.0018069 0.0000000
4.0018069 4.0018069 0.0000000
5.3571636 4.0018069 0.0000000
7.1704841 4.0018069 0.0000000
9.5965106 4.0018069 0.0000000
12.8422715 4.0018069 0.0000000
17.1847481 4.0018069 0.0000000
22.9945117 4.0018069 0.0000000
30.7673464 4.0018069 0.0000000
41.1665578 4.0018069 0.0000000
55.0795767 4.0018069 0.0000000
0.0000000 5.3571636 0.0000000
