tests/color-grading-smoke/reference_luts/logc_to_linear_33.cube
TITLE "logc_to_linear"
# logc_to_linear
LUT_3D_SIZE 9
0.0000000 0.0000000 0.0000000
0.0059972 0.0000000 0.0000000
0.0415196 0.0000000 0.0000000
0.1537629 0.0000000 0.0000000
0.5133834 0.0000000 0.0000000
1.6655845 0.0000000 0.0000000
5.3571636 0.0000000 0.0000000
17.1847481 0.0000000 0.0000000
55.0795767 0.0000000 0.0000000
0.0000000 0.0059972 0.0000000
0.0059972 0.0059972 0.0000000
0.0415196 0.0059972 0.0000000
0.1537629 0.0059972 0.0000000
0.5133834 0.0059972 0.0000000
1.6655845 0.0059972 0.0000000
5.3571636 0.0059972 0.0000000
17.1847481 0.0059972 0.0000000
55.0795767 0.0059972 0.0000000
0.0000000 0.0415196 0.0000000
0.0059972 0.0415196 0.0000000
0.0415196 0.0415196 0.0000000
0.1537629 0.0415196 0.0000000
0.5133834 0.0415196 0.0000000
1.6655845 0.0415196 0.0000000
5.3571636 0.0415196 0.0000000
17.1847481 0.0415196 0.0000000
55.0795767 0.0415196 0.0000000
0.0000000 0.1537629 0.0000000
0.0059972 0.1537629 0.0000000
0.0415196 0.1537629 0.0000000
0.1537629 0.1537629 0.0000000
0.5133834 0.1537629 0.0000000
1.6655845 0.1537629 0.0000000
5.3571636 0.1537629 0.0000000
17.1847481 0.1537629 0.0000000
55.0795767 0.1537629 0.0000000
0.0000000 0.5133834 0.0000000
0.0059972 0.5133834 0.0000000
0.0415196 0.5133834 0.0000000
0.1537629 0.5133834 0.0000000
0.5133834 0.5133834 0.0000000
1.6655845 0.5133834 0.0000000
5.3571636 0.5133834 0.0000000
17.1847481 0.5133834 0.0000000
55.0795767 0.5133834 0.0000000
0.0000000 1.6655845 0.0000000
0.0059972 1.6655845 0.0000000
0.0415196 1.6655845 0.0000000
0.1537629 1.6655845 0.0000000
0.5133834 1.6655845 0.0000000
1.6655845 1.6655845 0.0000000
5.3571636 1.6655845 0.0000000
17.1847481 1.6655845 0.0000000
55.0795767 1.6655845 0.0000000
0.0000000 5.3571636 0.0000000
0.0059972 5.3571636 0.0000000
0.0415196 5.3571636 0.0000000
0.1537629 5.3571636 0.0000000
0.5133834 5.3571636 0.0000000
1.6655845 5.3571636 0.0000000
5.3571636 5.3571636 0.0000000
17.1847481 5.3571636 0.0000000
55.0795767 5.3571636 0.0000000
0.0000000 17.1847481 0.0000000
0.0059972 17.1847481 0.0000000
0.0415196 17.1847481 0.0000000
0.1537629 17.1847481 0.0000000
0.5133834 17.1847481 0.0000000
1.6655845 17.1847481 0.0000000
5.3571636 17.1847481 0.0000000
17.1847481 17.1847481 0.0000000
55.0795767 17.1847481 0.0000000
0.0000000 55.0795767 0.0000000
0.0059972 55.0795767 0.0000000
0.0415196 55.0795767 0.0000000
0.1537629 55.0795767 0.0000000
0.5133834 55.0795767 0.0000000
1.6655845 55.0795767 0.0000000
5.3571636 55.0795767 0.0000000
17.1847481 55.0795767 0.0000000
55.0795767 55.0795767 0.0000000
0.0000000 0.0000000 0.0059972
0.0059972 0.0000000 0.0059972
0.0415196 0.0000000 0.0059972
0.1537629 0.0000000 0.0059972
0.5133834 0.0000000 0.0059972
1.6655845 0.0000000 0.0059972
5.3571636 0.0000000 0.0059972
17.1847481 0.0000000 0.0059972
55.0795767 0.0000000 0.0059972
0.0000000 0.0059972 0.0059972
0.0059972 0.0059972 0.0059972
0.0415196 0.0059972 0.0059972
0.1537629 0.0059972 0.0059972
0.5133834 0.0059972 0.0059972
1.6655845 0.0059972 0.0059972
5.3571636 0.0059972 0.0059972
17.1847481 0.0059972 0.0059972
55.0795767 0.0059972 0.0059972
0.0000000 0.0415196 0.0059972
0.0059972 0.0415196 0.0059972
0.0415196 0.0415196 0.0059972
0.1537629 0.0415196 0.0059972
0.5133834 0.0415196 0.0059972
1.6655845 0.0415196 0.0059972
5.3571636 0.0415196 0.0059972
17.1847481 0.0415196 0.0059972
55.0795767 0.0415196 0.0059972
0.0000000 0.1537629 0.0059972
0.0059972 0.1537629 0.0059972
0.0415196 0.1537629 0.0059972
0.1537629 0.1537629 0.0059972
0.5133834 0.1537629 0.0059972
1.6655845 0.1537629 0.0059972
5.3571636 0.1537629 0.0059972
17.1847481 0.1537629 0.0059972
55.0795767 0.1537629 0.0059972
0.0000000 0.5133834 0.0059972
0.0059972 0.5133834 0.0059972
0.0415196 0.5133834 0.0059972
0.1537629 0.5133834 0.0059972
0.5133834 0.5133834 0.0059972
1.6655845 0.5133834 0.0059972
5.3571636 0.5133834 0.0059972
17.1847481 0.5133834 0.0059972
55.0795767 0.5133834 0.0059972
0.0000000 1.6655845 0.0059972
0.0059972 1.6655845 0.0059972
0.0415196 1.6655845 0.0059972
0.1537629 1.6655845 0.0059972
0.5133834 1.6655845 0.0059972
1.6655845 1.6655845 0.0059972
5.3571636 1.6655845 0.0059972
17.1847481 1.6655845 0.0059972
55.0795767 1.6655845 0.0059972
0.0000000 5.3571636 0.0059972
0.0059972 5.3571636 0.0059972
0.0415196 5.3571636 0.0059972
0.1537629 5.3571636 0.0059972
0.5133834 5.3571636 0.0059972
1.6655845 5.3571636 0.0059972
5.3571636 5.3571636 0.0059972
17.1847481 5.3571636 0.0059972
55.0795767 5.3571636 0.0059972
0.0000000 17.1847481 0.0059972
0.0059972 17.1847481 0.0059972
0.0415196 17.1847481 0.0059972
0.1537629 17.1847481 0.0059972
0.5133834 17.1847481 0.0059972
1.6655845 17.1847481 0.0059972
5.3571636 17.1847481 0.0059972
17.1847481 17.1847481 0.0059972
55.0795767 17.1847481 0.0059972
0.0000000 55.0795767 0.0059972
0.0059972 55.0795767 0.0059972
0.0415196 55.0795767 0.0059972
0.1537629 55.0795767 0.0059972
0.5133834 55.0795767 0.0059972
1.6655845 55.0795767 0.0059972
5.3571636 55.0795767 0.0059972
17.1847481 55.0795767 0.0059972
55.0795767 55.0795767 0.0059972
0.0000000 0.0000000 0.0415196
0.0059972 0.0000000 0.0415196
0.0415196 0.0000000 0.0415196
0.1537629 0.0000000 0.0415196
0.5133834 0.0000000 0.0415196
1.6655845 0.0000000 0.0415196
5.3571636 0.0000000 0.0415196
17.1847481 0.0000000 0.0415196
55.0795767 0.0000000 0.0415196
0.0000000 0.0059972 0.0415196
0.0059972 0.0059972 0.0415196
0.0415196 0.0059972 0.0415196
0.1537629 0.0059972 0.0415196
0.5133834 0.0059972 0.0415196
1.6655845 0.0059972 0.0415196
5.3571636 0.0059972 0.0415196
17.1847481 0.0059972 0.0415196
55.0795767 0.0059972 0.0415196
0.0000000 0.0415196 0.0415196
0.0059972 0.0415196 0.0415196
0.0415196 0.0415196 0.0415196
0.1537629 0.0415196 0.0415196
0.5133834 0.0415196 0.0415196
1.6655845 0.0415196 0.0415196
5.3571636 0.0415196 0.0415196
17.1847481 0.0415196 0.0415196
55.0795767 0.0415196 0.0415196
0.0000000 0.1537629 0.0415196
0.0059972 0.1537629 0.0415196
0.0415196 0.1537629 0.0415196
0.1537629 0.1537629 0.0415196
0.5133834 0.1537629 0.0415196
1.6655845 0.1537629 0.0415196
5.3571636 0.1537629 0.0415196
17.1847481 0.1537629 0.0415196
55.0795767 0.1537629 0.0415196
0.0000000 0.5133834 0.0415196
0.0059972 0.5133834 0.0415196
0.0415196 0.5133834 0.0415196
0.1537629 0.5133834 0.0415196
0.5133834 0.5133834 0.0415196
1.6655845 0.5133834 0.0415196
5.3571636 0.5133834 0.0415196
17.1847481 0.5133834 0.0415196
55.0795767 0.5133834 0.0415196
0.0000000 1.6655845 0.0415196
0.0059972 1.6655845 0.0415196
0.0415196 1.6655845 0.0415196
0.1537629 1.6655845 0.0415196
0.5133834 1.6655845 0.0415196
1.6655845 1.6655845 0.0415196
5.3571636 1.6655845 0.0415196
17.1847481 1.6655845 0.0415196
55.0795767 1.6655845 0.0415196
0.0000000 5.3571636 0.0415196
0.0059972 5.3571636 0.0415196
0.0415196 5.3571636 0.0415196
0.1537629 5.3571636 0.0415196
0.5133834 5.3571636 0.0415196
1.6655845 5.3571636 0.0415196
5.3571636 5.3571636 0.0415196
17.1847481 5.3571636 0.0415196
55.0795767 5.3571636 0.0415196
0.0000000 17.1847481 0.0415196
0.0059972 17.1847481 0.0415196
0.0415196 17.1847481 0.0415196
0.1537629 17.1847481 0.0415196
0.5133834 17.1847481 0.0415196
1.6655845 17.1847481 0.0415196
5.3571636 17.1847481 0.0415196
17.1847481 17.1847481 0.0415196
55.0795767 17.1847481 0.0415196
0.0000000 55.0795767 0.0415196
0.0059972 55.0795767 0.0415196
0.0415196 55.0795767 0.0415196
0.1537629 55.0795767 0.0415196
0.5133834 55.0795767 0.0415196
1.6655845 55.0795767 0.0415196
5.3571636 55.0795767 0.0415196
17.1847481 55.0795767 0.0415196
55.0795767 55.0795767 0.0415196
0.0000000 0.0000000 0.1537629
0.0059972 0.0000000 0.1537629
0.0415196 0.0000000 0.1537629
0.1537629 0.0000000 0.1537629
0.5133834 0.0000000 0.1537629
1.6655845 0.0000000 0.1537629
5.3571636 0.0000000 0.1537629
17.1847481 0.0000000 0.1537629
55.0795767 0.0000000 0.1537629
0.0000000 0.0059972 0.1537629
0.0059972 0.0059972 0.1537629
0.0415196 0.0059972 0.1537629
0.1537629 0.0059972 0.1537629
0.5133834 0.0059972 0.1537629
1.6655845 0.0059972 0.1537629
5.3571636 0.0059972 0.1537629
17.1847481 0.0059972 0.1537629
55.0795767 0.0059972 0.1537629
0.0000000 0.0415196 0.1537629
0.0059972 0.0415196 0.1537629
0.0415196 0.0415196 0.1537629
0.1537629 0.0415196 0.1537629
0.5133834 0.0415196 0.1537629
1.6655845 0.0415196 0.1537629
5.3571636 0.0415196 0.1537629
17.1847481 0.0415196 0.1537629
55.0795767 0.0415196 0.1537629
0.0000000 0.1537629 0.1537629
0.0059972 0.1537629 0.1537629
0.0415196 0.1537629 0.1537629
0.1537629 0.1537629 0.1537629
0.5133834 0.1537629 0.1537629
1.6655845 0.1537629 0.1537629
5.3571636 0.1537629 0.1537629
17.1847481 0.1537629 0.1537629
55.0795767 0.1537629 0.1537629
0.0000000 0.5133834 0.1537629
0.0059972 0.5133834 0.1537629
0.0415196 0.5133834 0.1537629
0.1537629 0.5133834 0.1537629
0.5133834 0.5133834 0.1537629
1.6655845 0.5133834 0.1537629
5.3571636 0.5133834 0.1537629
17.1847481 0.5133834 0.1537629
55.0795767 0.5133834 0.1537629
0.0000000 1.6655845 0.1537629
0.0059972 1.6655845 0.1537629
0.0415196 1.6655845 0.1537629
0.1537629 1.6655845 0.1537629
0.5133834 1.6655845 0.1537629
1.6655845 1.6655845 0.1537629
5.3571636 1.6655845 0.1537629
17.1847481 1.6655845 0.1537629
55.0795767 1.6655845 0.1537629
0.0000000 5.3571636 0.1537629
0.0059972 5.3571636 0.1537629
0.0415196 5.3571636 0.1537629
0.1537629 5.3571636 0.1537629
0.5133834 5.3571636 0.1537629
1.6655845 5.3571636 0.1537629
5.3571636 5.3571636 0.1537629
17.1847481 5.3571636 0.1537629
55.0795767 5.3571636 0.1537629
0.0000000 17.1847481 0.1537629
0.0059972 17.1847481 0.1537629
0.0415196 17.1847481 0.1537629
0.1537629 17.1847481 0.1537629
0.5133834 17.1847481 0.1537629
1.6655845 17.1847481 0.1537629
5.3571636 17.1847481 0.1537629
17.1847481 17.1847481 0.1537629
55.0795767 17.1847481 0.1537629
0.0000000 55.0795767 0.1537629
0.0059972 55.0795767 0.1537629
0.0415196 55.0795767 0.1537629
0.1537629 55.0795767 0.1537629
0.5133834 55.0795767 0.1537629
1.6655845 55.0795767 0.1537629
5.3571636 55.0795767 0.1537629
17.1847481 55.0795767 0.1537629
55.0795767 55.0795767 0.1537629
0.0000000 0.0000000 0.5133834
0.0059972 0.0000000 0.5133834
0.0415196 0.0000000 0.5133834
0.1537629 0.0000000 0.5133834
0.5133834 0.0000000 0.5133834
1.6655845 0.0000000 0.5133834
5.3571636 0.0000000 0.5133834
17.1847481 0.0000000 0.5133834
55.0795767 0.0000000 0.5133834
0.0000000 0.0059972 0.5133834
0.0059972 0.0059972 0.5133834
0.0415196 0.0059972 0.5133834
0.1537629 0.0059972 0.5133834
0.5133834 0.0059972 0.5133834
1.6655845 0.0059972 0.5133834
5.3571636 0.0059972 0.5133834
17.1847481 0.0059972 0.5133834
55.0795767 0.0059972 0.5133834
0.0000000 0.0415196 0.5133834
0.0059972 0.0415196 0.5133834
0.0415196 0.0415196 0.5133834
0.1537629 0.0415196 0.5133834
0.5133834 0.0415196 0.5133834
1.6655845 0.0415196 0.5133834
5.3571636 0.0415196 0.5133834
17.1847481 0.0415196 0.5133834
55.0795767 0.0415196 0.5133834
0.0000000 0.1537629 0.5133834
0.0059972 0.1537629 0.5133834
0.0415196 0.1537629 0.5133834
0.1537629 0.1537629 0.5133834
0.5133834 0.1537629 0.5133834
1.6655845 0.1537629 0.5133834
5.3571636 0.1537629 0.5133834
17.1847481 0.1537629 0.5133834
55.0795767 0.1537629 0.5133834
0.0000000 0.5133834 0.5133834
0.0059972 0.5133834 0.5133834
0.0415196 0.5133834 0.5133834
0.1537629 0.5133834 0.5133834
0.5133834 0.5133834 0.5133834
1.6655845 0.5133834 0.5133834
5.3571636 0.5133834 0.5133834
17.1847481 0.5133834 0.5133834
55.0795767 0.5133834 0.5133834
0.0000000 1.6655845 0.5133834
0.0059972 1.6655845 0.5133834
0.0415196 1.6655845 0.5133834
0.1537629 1.6655845 0.5133834
0.5133834 1.6655845 0.5133834
1.6655845 1.6655845 0.5133834
5.3571636 1.6655845 0.5133834
17.1847481 1.6655845 0.5133834
55.0795767 1.6655845 0.5133834
0.0000000 5.3571636 0.5133834
0.0059972 5.3571636 0.5133834
0.0415196 5.3571636 0.5133834
0.1537629 5.3571636 0.5133834
0.5133834 5.3571636 0.5133834
1.6655845 5.3571636 0.5133834
5.3571636 5.3571636 0.5133834
17.1847481 5.3571636 0.5133834
55.0795767 5.3571636 0.5133834
0.0000000 17.1847481 0.5133834
0.0059972 17.1847481 0.5133834
0.0415196 17.1847481 0.5133834
0.1537629 17.1847481 0.5133834
0.5133834 17.1847481 0.5133834
1.6655845 17.1847481 0.5133834
5.3571636 17.1847481 0.5133834
17.1847481 17.1847481 0.5133834
55.0795767 17.1847481 0.5133834
0.0000000 55.0795767 0.5133834
0.0059972 55.0795767 0.5133834
0.0415196 55.0795767 0.5133834
0.1537629 55.0795767 0.5133834
0.5133834 55.0795767 0.5133834
1.6655845 55.0795767 0.5133834
5.3571636 55.0795767 0.5133834
17.1847481 55.0795767 0.5133834
55.0795767 55.0795767 0.5133834
0.0000000 0.0000000 1.6655845
0.0059972 0.0000000 1.6655845
0.0415196 0.0000000 1.6655845
0.1537629 0.0000000 1.6655845
0.5133834 0.0000000 1.6655845
1.6655845 0.0000000 1.6655845
5.3571636 0.0000000 1.6655845
17.1847481 0.0000000 1.6655845
55.0795767 0.0000000 1.6655845
0.0000000 0.0059972 1.6655845
0.0059972 0.0059972 1.6655845
0.0415196 0.0059972 1.6655845
0.1537629 0.0059972 1.6655845
0.5133834 0.0059972 1.6655845
1.6655845 0.0059972 1.6655845
5.3571636 0.0059972 1.6655845
17.1847481 0.0059972 1.6655845
55.0795767 0.0059972 1.6655845
0.0000000 0.0415196 1.6655845
0.0059972 0.0415196 1.6655845
0.0415196 0.0415196 1.6655845
0.1537629 0.0415196 1.6655845
0.5133834 0.0415196 1.6655845
1.6655845 0.0415196 1.6655845
5.3571636 0.0415196 1.6655845
17.1847481 0.0415196 1.6655845
55.0795767 0.0415196 1.6655845
0.0000000 0.1537629 1.6655845
0.0059972 0.1537629 1.6655845
0.0415196 0.1537629 1.6655845
0.1537629 0.1537629 1.6655845
0.5133834 0.1537629 1.6655845
1.6655845 0.1537629 1.6655845
5.3571636 0.1537629 1.6655845
17.1847481 0.1537629 1.6655845
55.0795767 0.1537629 1.6655845
0.0000000 0.5133834 1.6655845
0.0059972 0.5133834 1.6655845
0.0415196 0.5133834 1.6655845
0.1537629 0.5133834 1.6655845
0.5133834 0.5133834 1.6655845
1.6655845 0.5133834 1.6655845
5.3571636 0.5133834 1.6655845
17.1847481 0.5133834 1.6655845
55.0795767 0.5133834 1.6655845
0.0000000 1.6655845 1.6655845
0.0059972 1.6655845 1.6655845
0.0415196 1.6655845 1.6655845
0.1537629 1.6655845 1.6655845
0.5133834 1.6655845 1.6655845
1.6655845 1.6655845 1.6655845
5.3571636 1.6655845 1.6655845
17.1847481 1.6655845 1.6655845
55.0795767 1.6655845 1.6655845
0.0000000 5.3571636 1.6655845
0.0059972 5.3571636 1.6655845
0.0415196 5.3571636 1.6655845
0.1537629 5.3571636 1.6655845
0.5133834 5.3571636 1.6655845
1.6655845 5.3571636 1.6655845
5.3571636 5.3571636 1.6655845
17.1847481 5.3571636 1.6655845
55.0795767 5.3571636 1.6655845
0.0000000 17.1847481 1.6655845
0.0059972 17.1847481 1.6655845
0.0415196 17.1847481 1.6655845
0.1537629 17.1847481 1.6655845
0.5133834 17.1847481 1.6655845
1.6655845 17.1847481 1.6655845
5.3571636 17.1847481 1.6655845
17.1847481 17.1847481 1.6655845
55.0795767 17.1847481 1.6655845
0.0000000 55.0795767 1.6655845
0.0059972 55.0795767 1.6655845
0.0415196 55.0795767 1.6655845
0.1537629 55.0795767 1.6655845
0.5133834 55.0795767 1.6655845
1.6655845 55.0795767 1.6655845
5.3571636 55.0795767 1.6655845
17.1847481 55.0795767 1.6655845
55.0795767 55.0795767 1.6655845
0.0000000 0.0000000 5.3571636
0.0059972 0.0000000 5.3571636
0.0415196 0.0000000 5.3571636
0.1537629 0.0000000 5.3571636
0.5133834 0.0000000 5.3571636
1.6655845 0.0000000 5.3571636
5.3571636 0.0000000 5.3571636
17.1847481 0.0000000 5.3571636
55.0795767 0.0000000 5.3571636
0.0000000 0.0059972 5.3571636
0.0059972 0.0059972 5.3571636
0.0415196 0.0059972 5.3571636
0.1537629 0.0059972 5.3571636
0.5133834 0.0059972 5.3571636
1.6655845 0.0059972 5.3571636
5.3571636 0.0059972 5.3571636
17.1847481 0.0059972 5.3571636
55.0795767 0.0059972 5.3571636
0.0000000 0.0415196 5.3571636
0.0059972 0.0415196 5.3571636
0.0415196 0.0415196 5.3571636
0.1537629 0.0415196 5.3571636
0.5133834 0.0415196 5.3571636
1.6655845 0.0415196 5.3571636
5.3571636 0.0415196 5.3571636
17.1847481 0.0415196 5.3571636
55.0795767 0.0415196 5.3571636
0.0000000 0.1537629 5.3571636
0.0059972 0.1537629 5.3571636
0.0415196 0.1537629 5.3571636
0.1537629 0.1537629 5.3571636
0.5133834 0.1537629 5.3571636
1.6655845 0.1537629 5.3571636
5.3571636 0.1537629 5.3571636
17.1847481 0.1537629 5.3571636
55.0795767 0.1537629 5.3571636
0.0000000 0.5133834 5.3571636
0.0059972 0.5133834 5.3571636
0.0415196 0.5133834 5.3571636
0.1537629 0.5133834 5.3571636
0.5133834 0.5133834 5.3571636
1.6655845 0.5133834 5.3571636
5.3571636 0.5133834 5.3571636
17.1847481 0.5133834 5.3571636
55.0795767 0.5133834 5.3571636
0.0000000 1.6655845 5.3571636
0.0059972 1.6655845 5.3571636
0.0415196 1.6655845 5.3571636
0.1537629 1.6655845 5.3571636
0.5133834 1.6655845 5.3571636
1.6655845 1.6655845 5.3571636
5.3571636 1.6655845 5.3571636
17.1847481 1.6655845 5.3571636
55.0795767 1.6655845 5.3571636
0.0000000 5.3571636 5.3571636
0.0059972 5.3571636 5.3571636
0.0415196 5.3571636 5.3571636
0.1537629 5.3571636 5.3571636
0.5133834 5.3571636 5.3571636
1.6655845 5.3571636 5.3571636
5.3571636 5.3571636 5.3571636
17.1847481 5.3571636 5.3571636
55.0795767 5.3571636 5.3571636
0.0000000 17.1847481 5.3571636
0.0059972 17.1847481 5.3571636
0.0415196 17.1847481 5.3571636
0.1537629 17.1847481 5.3571636
0.5133834 17.1847481 5.3571636
1.6655845 17.1847481 5.3571636
5.3571636 17.1847481 5.3571636
17.1847481 17.1847481 5.3571636
55.0795767 17.1847481 5.3571636
0.0000000 55.0795767 5.3571636
0.0059972 55.0795767 5.3571636
0.0415196 55.0795767 5.3571636
0.1537629 55.0795767 5.3571636
0.5133834 55.0795767 5.3571636
1.6655845 55.0795767 5.3571636
5.3571636 55.0795767 5.3571636
17.1847481 55.0795767 5.3571636
55.0795767 55.0795767 5.3571636
0.0000000 0.0000000 17.1847481
0.0059972 0.0000000 17.1847481
0.0415196 0.0000000 17.1847481
0.1537629 0.0000000 17.1847481
0.5133834 0.0000000 17.1847481
1.6655845 0.0000000 17.1847481
5.3571636 0.0000000 17.1847481
17.1847481 0.0000000 17.1847481
55.0795767 0.0000000 17.1847481
0.0000000 0.0059972 17.1847481
0.0059972 0.0059972 17.1847481
0.0415196 0.0059972 17.1847481
0.1537629 0.0059972 17.1847481
0.5133834 0.0059972 17.1847481
1.6655845 0.0059972 17.1847481
5.3571636 0.0059972 17.1847481
17.1847481 0.0059972 17.1847481
55.0795767 0.0059972 17.1847481
0.0000000 0.0415196 17.1847481
0.0059972 0.0415196 17.1847481
0.0415196 0.0415196 17.1847481
0.1537629 0.0415196 17.1847481
0.5133834 0.0415196 17.1847481
1.6655845 0.0415196 17.1847481
5.3571636 0.0415196 17.1847481
17.1847481 0.0415196 17.1847481
55.0795767 0.0415196 17.1847481
0.0000000 0.1537629 17.1847481
0.0059972 0.1537629 17.1847481
0.0415196 0.1537629 17.1847481
0.1537629 0.1537629 17.1847481
0.5133834 0.1537629 17.1847481
1.6655845 0.1537629 17.1847481
5.3571636 0.1537629 17.1847481
17.1847481 0.1537629 17.1847481
55.0795767 0.1537629 17.1847481
0.0000000 0.5133834 17.1847481
0.0059972 0.5133834 17.1847481
0.0415196 0.5133834 17.1847481
0.1537629 0.5133834 17.1847481
0.5133834 0.5133834 17.1847481
1.6655845 0.5133834 17.1847481
5.3571636 0.5133834 17.1847481
17.1847481 0.5133834 17.1847481
55.0795767 0.5133834 17.1847481
0.0000000 1.6655845 17.1847481
0.0059972 1.6655845 17.1847481
0.0415196 1.6655845 17.1847481
0.1537629 1.6655845 17.1847481
0.5133834 1.6655845 17.1847481
1.6655845 1.6655845 17.1847481
5.3571636 1.6655845 17.1847481
17.1847481 1.6655845 17.1847481
55.0795767 1.6655845 17.1847481
0.0000000 5.3571636 17.1847481
0.0059972 5.3571636 17.1847481
0.0415196 5.3571636 17.1847481
0.1537629 5.3571636 17.1847481
0.5133834 5.3571636 17.1847481
1.6655845 5.3571636 17.1847481
5.3571636 5.3571636 17.1847481
17.1847481 5.3571636 17.1847481
55.0795767 5.3571636 17.1847481
0.0000000 17.1847481 17.1847481
0.0059972 17.1847481 17.1847481
0.0415196 17.1847481 17.1847481
0.1537629 17.1847481 17.1847481
0.5133834 17.1847481 17.1847481
1.6655845 17.1847481 17.1847481
5.3571636 17.1847481 17.1847481
17.1847481 17.1847481 17.1847481
55.0795767 17.1847481 17.1847481
0.0000000 55.0795767 17.1847481
0.0059972 55.0795767 17.1847481
0.0415196 55.0795767 17.1847481
0.1537629 55.0795767 17.1847481
0.5133834 55.0795767 17.1847481
1.6655845 55.0795767 17.1847481
5.3571636 55.0795767 17.1847481
17.1847481 55.0795767 17.1847481
55.0795767 55.0795767 17.1847481
0.0000000 0.0000000 55.0795767
0.0059972 0.0000000 55.0795767
0.0415196 0.0000000 55.0795767
0.1537629 0.0000000 55.0795767
0.5133834 0.0000000 55.0795767
1.6655845 0.0000000 55.0795767
5.3571636 0.0000000 55.0795767
17.1847481 0.0000000 55.0795767
55.0795767 0.0000000 55.0795767
0.0000000 0.0059972 55.0795767
0.0059972 0.0059972 55.0795767
0.0415196 0.0059972 55.0795767
0.1537629 0.0059972 55.0795767
0.5133834 0.0059972 55.0795767
1.6655845 0.0059972 55.0795767
5.3571636 0.0059972 55.0795767
17.1847481 0.0059972 55.0795767
55.0795767 0.0059972 55.0795767
0.0000000 0.0415196 55.0795767
0.0059972 0.0415196 55.0795767
0.0415196 0.0415196 55.0795767
0.1537629 0.0415196 55.0795767
0.5133834 0.0415196 55.0795767
1.6655845 0.0415196 55.0795767
5.3571636 0.0415196 55.0795767
17.1847481 0.0415196 55.0795767
55.0795767 0.0415196 55.0795767
0.0000000 0.1537629 55.0795767
0.0059972 0.1537629 55.0795767
0.0415196 0.1537629 55.0795767
0.1537629 0.1537629 55.0795767
0.5133834 0.1537629 55.0795767
1.6655845 0.1537629 55.0795767
5.3571636 0.1537629 55.0795767
17.1847481 0.1537629 55.0795767
55.0795767 0.1537629 55.0795767
0.0000000 0.5133834 55.0795767
0.0059972 0.5133834 55.0795767
0.0415196 0.5133834 55.0795767
0.1537629 0.5133834 55.0795767
0.5133834 0.5133834 55.0795767
1.6655845 0.5133834 55.0795767
5.3571636 0.5133834 55.0795767
17.1847481 0.5133834 55.0795767
55.0795767 0.5133834 55.0795767
0.0000000 1.6655845 55.0795767
0.0059972 1.6655845 55.0795767
0.0415196 1.6655845 55.0795767
0.1537629 1.6655845 55.0795767
0.5133834 1.6655845 55.0795767
1.6655845 1.6655845 55.0795767
5.3571636 1.6655845 55.0795767
17.1847481 1.6655845 55.0795767
55.0795767 1.6655845 55.0795767
0.0000000 5.3571636 55.0795767
0.0059972 5.3571636 55.0795767
0.0415196 5.3571636 55.0795767
0.1537629 5.3571636 55.0795767
0.5133834 5.3571636 55.0795767
1.6655845 5.3571636 55.0795767
5.3571636 5.3571636 55.0795767
17.1847481 5.3571636 55.0795767
55.0795767 5.3571636 55.0795767
0.0000000 17.1847481 55.0795767
0.0059972 17.1847481 55.0795767
0.0415196 17.1847481 55.0795767
0.1537629 17.1847481 55.0795767
0.5133834 17.1847481 55.0795767
1.6655845 17.1847481 55.0795767
5.3571636 17.1847481 55.0795767
17.1847481 17.1847481 55.0795767
55.0795767 17.1847481 55.0795767
0.0000000 55.0795767 55.0795767
0.0059972 55.0795767 55.0795767
0.0415196 55.0795767 55.0795767
0.1537629 55.0795767 55.0795767
0.5133834 55.0795767 55.0795767
1.6655845 55.0795767 55.0795767
5.3571636 55.0795767 55.0795767
17.1847481 55.0795767 55.0795767
55.0795767 55.0795767 55.0795767
