tests/color-grading-smoke/reference_luts/logc_to_linear_33.cube
TITLE "logc_to_linear"
# logc_to_linear
LUT_3D_SIZE 5
0.0000000 0.0000000 0.0000000
0.0415196 0.0000000 0.0000000
0.5133834 0.0000000 0.0000000
5.3571636 0.0000000 0.0000000
55.0795767 0.0000000 0.0000000
0.0000000 0.0415196 0.0000000
0.0415196 0.0415196 0.0000000
0.5133834 0.0415196 0.0000000
5.3571636 0.0415196 0.0000000
55.0795767 0.0415196 0.0000000
0.0000000 0.5133834 0.0000000
0.0415196 0.5133834 0.0000000
0.5133834 0.5133834 0.0000000
5.3571636 0.5133834 0.0000000
55.0795767 0.5133834 0.0000000
0.0000000 5.3571636 0.0000000
0.0415196 5.3571636 0.0000000
0.5133834 5.3571636 0.0000000
5.3571636 5.3571636 0.0000000
55.0795767 5.3571636 0.0000000
0.0000000 55.0795767 0.0000000
0.0415196 55.0795767 0.0000000
0.5133834 55.0795767 0.0000000
5.3571636 55.0795767 0.0000000
55.0795767 55.0795767 0.0000000
0.0000000 0.0000000 0.0415196
0.0415196 0.0000000 0.0415196
0.5133834 0.0000000 0.0415196
5.3571636 0.0000000 0.0415196
55.0795767 0.0000000 0.0415196
0.0000000 0.0415196 0.0415196
0.0415196 0.0415196 0.0415196
0.5133834 0.0415196 0.0415196
5.3571636 0.0415196 0.0415196
55.0795767 0.0415196 0.0415196
0.0000000 0.5133834 0.0415196
0.0415196 0.5133834 0.0415196
0.5133834 0.5133834 0.0415196
5.3571636 0.5133834 0.0415196
55.0795767 0.5133834 0.0415196
0.0000000 5.3571636 0.0415196
0.0415196 5.3571636 0.0415196
0.5133834 5.3571636 0.0415196
5.3571636 5.3571636 0.0415196
55.0795767 5.3571636 0.0415196
0.0000000 55.0795767 0.0415196
0.0415196 55.0795767 0.0415196
0.5133834 55.0795767 0.0415196
5.3571636 55.0795767 0.0415196
55.0795767 55.0795767 0.0415196
0.0000000 0.0000000 0.5133834
0.0415196 0.0000000 0.5133834
0.5133834 0.0000000 0.5133834
5.3571636 0.0000000 0.5133834
55.0795767 0.0000000 0.5133834
0.0000000 0.0415196 0.5133834
0.0415196 0.0415196 0.5133834
0.5133834 0.0415196 0.5133834
5.3571636 0.0415196 0.5133834
55.0795767 0.0415196 0.5133834
0.0000000 0.5133834 0.5133834
0.0415196 0.5133834 0.5133834
0.5133834 0.5133834 0.5133834
5.3571636 0.5133834 0.5133834
55.0795767 0.5133834 0.5133834
0.0000000 5.3571636 0.5133834
0.0415196 5.3571636 0.5133834
0.5133834 5.3571636 0.5133834
5.3571636 5.3571636 0.5133834
55.0795767 5.3571636 0.5133834
0.0000000 55.0795767 0.5133834
0.0415196 55.0795767 0.5133834
0.5133834 55.0795767 0.5133834
5.3571636 55.0795767 0.5133834
55.0795767 55.0795767 0.5133834
0.0000000 0.0000000 5.3571636
0.0415196 0.0000000 5.3571636
0.5133834 0.0000000 5.3571636
5.3571636 0.0000000 5.3571636
55.0795767 0.0000000 5.3571636
0.0000000 0.0415196 5.3571636
0.0415196 0.0415196 5.3571636
0.5133834 0.0415196 5.3571636
5.3571636 0.0415196 5.3571636
55.0795767 0.0415196 5.3571636
0.0000000 0.5133834 5.3571636
0.0415196 0.5133834 5.3571636
0.5133834 0.5133834 5.3571636
5.3571636 0.5133834 5.3571636
55.0795767 0.5133834 5.3571636
0.0000000 5.3571636 5.3571636
0.0415196 5.3571636 5.3571636
0.5133834 5.3571636 5.3571636
5.3571636 5.3571636 5.3571636
55.0795767 5.3571636 5.3571636
0.0000000 55.0795767 5.3571636
0.0415196 55.0795767 5.3571636
0.5133834 55.0795767 5.3571636
5.3571636 55.0795767 5.3571636
55.0795767 55.0795767 5.3571636
0.0000000 0.0000000 55.0795767
0.0415196 0.0000000 55.0795767
0.5133834 0.0000000 55.0795767
5.3571636 0.0000000 55.0795767
55.0795767 0.0000000 55.0795767
0.0000000 0.0415196 55.0795767
0.0415196 0.0415196 55.0795767
0.5133834 0.0415196 55.0795767
5.3571636 0.0415196 55.0795767
55.0795767 0.0415196 55.0795767
0.0000000 0.5133834 55.0795767
0.0415196 0.5133834 55.0795767
0.5133834 0.5133834 55.0795767
5.3571636 0.5133834 55.0795767
55.0795767 0.5133834 55.0795767
0.0000000 5.3571636 55.0795767
0.0415196 5.3571636 55.0795767
0.5133834 5.3571636 55.0795767
5.3571636 5.3571636 55.0795767
55.0795767 5.3571636 55.0795767
0.0000000 55.0795767 55.0795767
0.0415196 55.0795767 55.0795767
0.5133834 55.0795767 55.0795767
5.3571636 55.0795767 55.0795767
55.0795767 55.0795767 55.0795767
